data/textures/core.cube
TITLE "zbladetoohot_1.output2cyberpunk_verynice_1.output2.cube"
# Created by Imaging - supersinfulsilicon software
LUT_3D_SIZE 9
0.01846342 0.02438392 0.04211490
0.16205081 0.01324483 0.08061341
0.28941786 0.01159686 0.14340429
0.37199968 0.01666285 0.17293049
0.45954069 0.02114900 0.19681087
0.53333336 0.03596551 0.21866179
0.61412984 0.03836118 0.25169757
0.67786682 0.05212482 0.28900588
0.75077438 0.06608682 0.33815518
0.08216983 0.11947814 0.10214389
0.13479820 0.09822232 0.10737774
0.25505456 0.04779126 0.11953918
0.36238652 0.03447013 0.15078965
0.46071565 0.03479057 0.17666896
0.53646141 0.04748607 0.19549859
0.61957735 0.04922561 0.22543679
0.68082702 0.06381323 0.25705349
0.75446707 0.07653926 0.30589762
0.13107499 0.21217670 0.13363852
0.13813992 0.20984207 0.14013886
0.22877851 0.20032044 0.15338369
0.35513848 0.15304799 0.15704586
0.47022203 0.12703136 0.17090105
0.55661857 0.11999695 0.16534676
0.63123524 0.10038911 0.17978179
0.69071490 0.09713893 0.20285344
0.76484323 0.10055695 0.24597543
0.19034104 0.31059739 0.16519417
0.19766536 0.31119248 0.17106889
0.21989776 0.31381705 0.18045320
0.32599375 0.30826277 0.19662775
0.44089419 0.28468758 0.20894179
0.55724424 0.26518655 0.21905851
0.64466316 0.25027847 0.21162738
0.70243382 0.22734417 0.22197299
0.77705044 0.19403373 0.24658579
0.22920577 0.41165790 0.20697337
0.24716564 0.41034561 0.21051347
0.25241473 0.41527429 0.21640345
0.31178761 0.41800565 0.22635233
0.42299536 0.41251239 0.24118410
0.55036241 0.38062105 0.25964752
0.65619898 0.36455330 0.25448996
0.71067369 0.34395361 0.23254749
0.78962386 0.31689936 0.25189593
0.25983062 0.51554132 0.23248646
0.29401085 0.51325244 0.23581292
0.29407188 0.51810485 0.23700313
0.32407111 0.52210271 0.23782712
0.41472495 0.52310979 0.24538033
0.53313494 0.49085221 0.24695201
0.65705347 0.47248036 0.24835584
0.72663462 0.46527809 0.24010071
0.81565577 0.44559395 0.28674755
0.28265813 0.59198904 0.22833601
0.32837415 0.59577328 0.23041123
0.33353171 0.60131228 0.23135729
0.35687801 0.60779738 0.23266956
0.42862591 0.61489278 0.23993286
0.53580528 0.61316854 0.25131610
0.65854889 0.60123599 0.26007476
0.76963454 0.59772640 0.28598458
0.87037462 0.58084995 0.32486457
0.31039903 0.70679790 0.20813306
0.36040285 0.71696043 0.21097124
0.37468529 0.72594798 0.21612878
0.40244144 0.73597312 0.22311741
0.47193104 0.74732584 0.23779660
0.56220341 0.76099795 0.23602656
0.67591363 0.77036697 0.23205921
0.80799574 0.77833217 0.25821316
0.89564353 0.72605479 0.27148852
0.33966583 0.84779125 0.21527427
0.39206532 0.86118865 0.22966354
0.40979630 0.86457616 0.22815290
0.45944914 0.87421989 0.23447013
0.53934538 0.88776988 0.24863051
0.62500954 0.90188450 0.25632104
0.72594798 0.91229117 0.26482034
0.83830017 0.91178757 0.27389944
0.92838943 0.91511405 0.28107119
0.03039597 0.06279088 0.25334555
0.13586633 0.02792401 0.34900436
0.28917372 0.02233921 0.30778974
0.36981764 0.01828031 0.30554664
0.48239872 0.02185092 0.33078507
0.55436027 0.03578241 0.30673686
0.62059969 0.03686580 0.31686884
0.68424505 0.05053788 0.35556573
0.75388724 0.06256199 0.40277714
0.05241474 0.12207218 0.29425499
0.12495613 0.09362936 0.27580681
0.23270008 0.05024796 0.26582742
0.34103915 0.03466850 0.29152361
0.46564430 0.03196765 0.31058213
0.53568321 0.04644846 0.29779506
0.61272603 0.04614328 0.31119248
0.68403143 0.06112764 0.34070343
0.75631344 0.07234302 0.37817961
0.07943847 0.21393149 0.25450522
0.12545967 0.19827573 0.25162128
0.21512169 0.17825590 0.25003433
0.33157855 0.13997100 0.25786221
0.45500877 0.11578546 0.27804989
0.54905015 0.10888838 0.26402685
0.63334095 0.09855802 0.27896544
0.69893950 0.09265278 0.29999238
0.76893264 0.09567407 0.34279394
0.12426947 0.32248417 0.22996871
0.17944610 0.30756083 0.24112307
0.22131686 0.30081636 0.24701305
0.31616694 0.29234761 0.25734341
0.43118945 0.26471353 0.26282141
0.56012815 0.24118410 0.27315176
0.65670252 0.21867704 0.25998321
0.71621269 0.19766536 0.26715496
0.78419167 0.17447166 0.29431602
0.16676585 0.42731366 0.24559395
0.22430763 0.41010147 0.26047149
0.25918975 0.40537119 0.26425573
0.30643168 0.40772107 0.27704281
0.41510645 0.40256351 0.29443809
0.54100859 0.36749828 0.30121309
0.66633099 0.34378576 0.30261692
0.72495615 0.31750974 0.27164111
0.79383534 0.29326314 0.27579156
0.20260929 0.52936602 0.26977950
0.26024261 0.51706719 0.27981994
0.29761195 0.51169604 0.27890441
0.33228046 0.51374078 0.28029299
0.41570154 0.51670098 0.28795299
0.52800792 0.48822767 0.28899062
0.65909821 0.46208897 0.29616237
0.73785001 0.44734874 0.27435720
0.81599146 0.42426184 0.29365987
0.23569085 0.60415047 0.26407263
0.29416344 0.60724801 0.26630044
0.33688867 0.60575265 0.27148852
0.36865798 0.61130691 0.27235827
0.43985656 0.61841762 0.27692074
0.53900969 0.61632717 0.28891432
0.65552759 0.59855038 0.29196611
0.77424276 0.59133285 0.29651332
0.87867552 0.56676584 0.34023041
0.26681927 0.70919359 0.22673380
0.32437629 0.72092777 0.22760357
0.36777294 0.73029679 0.23210499
0.40505072 0.74045932 0.23984131
0.47444877 0.75153732 0.25735867
0.56510264 0.76575875 0.25864041
0.67423517 0.77351034 0.25348288
0.81431293 0.77961397 0.28145266
0.91148239 0.71532768 0.29571983
0.29379719 0.84415960 0.22333105
0.36224917 0.86387426 0.25061417
0.40991837 0.86765850 0.26056305
0.45926604 0.87495232 0.26981002
0.54396886 0.88976884 0.28830397
0.63337147 0.90354770 0.30466163
0.73356223 0.91438162 0.31763181
0.84835583 0.91444266 0.31613642
0.94447243 0.91500723 0.31674677
0.05143816 0.12207218 0.44824904
0.09817655 0.04156557 0.48639658
0.25682458 0.02870222 0.44437325
0.37041277 0.01838712 0.40633249
0.48183414 0.01705959 0.39002061
0.59082931 0.03025864 0.39667353
0.65790796 0.03292897 0.39081407
0.71044481 0.04628062 0.41231403
0.77332723 0.05682460 0.44629586
0.05925078 0.14679179 0.42375830
0.09280537 0.09564355 0.40921646
0.22375830 0.04756237 0.39053941
0.34802777 0.02789349 0.36493477
0.46704814 0.03228809 0.39624628
0.57621121 0.04132143 0.40643930
0.64748609 0.04177920 0.40646982
0.71018541 0.05543603 0.42948043
0.77564663 0.06613260 0.45725185
0.07513542 0.20717174 0.39261463
0.11248951 0.20190738 0.37898833
0.21493858 0.18197909 0.37836272
0.32079041 0.14074922 0.37656215
0.43045700 0.11979858 0.39572749
0.56897843 0.10962081 0.42771038
0.65297931 0.10113680 0.41287860
0.72120243 0.09919890 0.42003509
0.78368813 0.09843595 0.43480584
0.10391394 0.32251468 0.37750819
0.14554055 0.31653315 0.36282903
0.21216144 0.30106050 0.36359197
0.31242847 0.28311589 0.36282903
0.41623560 0.25264362 0.36844435
0.55645072 0.22218663 0.39623103
0.68162048 0.20138857 0.40541697
0.74488443 0.18661784 0.39975587
0.79147023 0.16615549 0.40186161
0.12600900 0.43663692 0.36557564
0.17862211 0.42633706 0.35825130
0.24083315 0.41109329 0.36528572
0.30765241 0.40326542 0.37396809
0.41181049 0.38886091 0.38231480
0.52968645 0.35127795 0.39114976
0.67875183 0.32175174 0.40718699
0.75025558 0.29266804 0.37082475
0.80207521 0.28252080 0.36701000
0.14984359 0.54151219 0.35904479
0.21155109 0.53540856 0.35967040
0.27763790 0.51764709 0.37064165
0.33470663 0.51155871 0.37117571
0.41864651 0.51105517 0.37805754
0.53054094 0.48908216 0.37566185
0.65745020 0.45181963 0.37750819
0.76124209 0.42960250 0.35696957
0.81898224 0.40250248 0.33940643
0.17593652 0.61908901 0.32452887
0.25009537 0.62287325 0.33334860
0.31554133 0.61850917 0.35312429
0.37003127 0.61759365 0.35468072
0.44606698 0.61954683 0.35750362
0.54645610 0.62313271 0.36568245
0.65378803 0.59923702 0.36096743
0.77695888 0.58286411 0.33585107
0.88719004 0.55217820 0.38376439
0.20730907 0.71079576 0.26199740
0.28781566 0.72471201 0.26692608
0.34489968 0.73527122 0.28767833
0.39755857 0.74515909 0.29503319
0.47257191 0.75584036 0.30926985
0.56678110 0.76829177 0.32210270
0.67342639 0.77677578 0.31447318
0.82105744 0.78156710 0.32077515
0.92095828 0.71378654 0.33090714
0.24896620 0.83659112 0.23419547
0.33720914 0.86292821 0.25632104
0.39841306 0.87104601 0.29660487
0.44733348 0.87693596 0.30885786
0.54157323 0.89271384 0.32883191
0.63453114 0.90605021 0.34760052
0.73661405 0.91746396 0.36316472
0.85163653 0.91773862 0.36749828
0.95202565 0.91650265 0.36334783
0.06556801 0.12573434 0.56519419
0.09408713 0.05267414 0.58020908
0.20961319 0.03683528 0.55460441
0.35365835 0.02531472 0.51992065
0.46617839 0.01303121 0.50086212
0.61486226 0.02053864 0.51413751
0.70360875 0.02204929 0.48108643
0.73521018 0.03791867 0.47687495
0.79017317 0.04901198 0.50284582
0.07307546 0.16031128 0.52796215
0.08816663 0.11097886 0.53144121
0.18405432 0.05345235 0.52317083
0.34007782 0.03186084 0.49761197
0.46248570 0.02130159 0.48743421
0.60160220 0.03068589 0.49854276
0.67728692 0.03503472 0.48516059
0.73661405 0.05178912 0.50827801
0.79395741 0.06108186 0.53832304
0.08526742 0.22629130 0.51432061
0.10986496 0.21600671 0.50278479
0.19201954 0.17628749 0.49559778
0.31944764 0.13513389 0.48308536
0.42893112 0.10684367 0.47327381
0.56858170 0.09985504 0.51960021
0.68122375 0.09695583 0.54883647
0.74694437 0.09243915 0.54810405
0.81045240 0.09315633 0.55825132
0.10913253 0.32043946 0.50653851
0.13998626 0.31628901 0.49634546
0.19774166 0.30568400 0.48197147
0.31624323 0.29105058 0.48682383
0.40798047 0.24829480 0.48126954
0.52864879 0.21586938 0.50510412
0.67824829 0.20405890 0.55814451
0.77140456 0.19328603 0.56781870
0.82166779 0.17358664 0.53434044
0.12957962 0.43941405 0.50678265
0.16133364 0.43527886 0.49234760
0.22192721 0.42340735 0.48151371
0.30142671 0.41098648 0.48551157
0.41144428 0.38606852 0.48770887
0.51708245 0.34154269 0.49143207
0.65836579 0.30966660 0.51789123
0.78141451 0.28511482 0.53406578
0.81821924 0.27106127 0.47537956
0.14731060 0.54920274 0.49346152
0.18295567 0.54593730 0.47566950
0.25091934 0.53490502 0.46770427
0.32004273 0.52149236 0.47177845
0.41760892 0.50937665 0.47415885
0.52701610 0.48282596 0.46993211
0.64637214 0.43996337 0.46927595
0.78849471 0.41582361 0.47714961
0.83260852 0.39159226 0.43347830
0.16998550 0.63346303 0.43929198
0.21239032 0.63718623 0.42581826
0.29358357 0.63443959 0.43494317
0.35272756 0.62827498 0.44475472
0.44089419 0.62247652 0.44583809
0.55542839 0.62751204 0.45627528
0.65774012 0.61011672 0.44803539
0.79490346 0.58031589 0.42262912
0.89614707 0.54746318 0.44928664
0.18814375 0.71612114 0.33060196
0.25546655 0.72913712 0.32321659
0.33878079 0.73939115 0.33933014
0.38580912 0.75165939 0.35202563
0.46132600 0.76261538 0.36644542
0.56652170 0.77207601 0.38419166
0.67533380 0.78278780 0.39197376
0.83553827 0.79029524 0.40064088
0.93858242 0.72411686 0.41876858
0.21618982 0.82374305 0.26221102
0.32504767 0.86135656 0.28873122
0.40305179 0.87067980 0.33191425
0.44507515 0.87772948 0.35538262
0.53266191 0.89250016 0.39258412
0.63485163 0.90757608 0.40984207
0.73786527 0.91917294 0.42531472
0.85314715 0.92249942 0.42967880
0.95803767 0.91908139 0.41916534
0.07818723 0.13353170 0.63913941
0.09808499 0.06912337 0.66176850
0.17799649 0.04678416 0.65479517
0.33525598 0.03179980 0.62839705
0.45290303 0.01490806 0.61081862
0.58138400 0.01730373 0.61832607
0.72446781 0.01542687 0.64280158
0.79758906 0.02397192 0.61466390
0.82717633 0.04112306 0.58954757
0.08967727 0.17471580 0.62294954
0.10193027 0.13308918 0.64077210
0.16720836 0.07183947 0.64213014
0.32251468 0.04312200 0.61568630
0.44362554 0.02172885 0.60073245
0.57322043 0.02169833 0.60910964
0.72309452 0.02229343 0.63666743
0.78779280 0.03616388 0.61695278
0.81098652 0.05777066 0.60593575
0.09906157 0.24547188 0.62148470
0.11810483 0.22926681 0.61518270
0.18519875 0.18016326 0.60920119
0.30185398 0.13253987 0.60135806
0.42284274 0.10486000 0.59171432
0.55208665 0.08670177 0.60291445
0.68995196 0.08270390 0.63585871
0.76766616 0.08453498 0.65859467
0.82664227 0.09678797 0.65772486
0.11992066 0.32874036 0.62461281
0.14636454 0.32605478 0.61503011
0.20415045 0.31573969 0.60267031
0.30426490 0.28885329 0.59597164
0.40511176 0.24982071 0.59047836
0.51639581 0.20567636 0.58979172
0.65284199 0.20184635 0.63984132
0.77821010 0.19842832 0.69175249
0.84205389 0.18542764 0.66010529
0.13455406 0.44486153 0.61896694
0.15977722 0.43927673 0.61197835
0.21170367 0.43080798 0.59711605
0.29631495 0.41632715 0.59348440
0.41669336 0.39667353 0.60045779
0.51351184 0.33945221 0.59095138
0.63108265 0.30582133 0.61135274
0.77538717 0.29274434 0.65220112
0.85044634 0.27676815 0.61686122
0.15147631 0.55460441 0.60291445
0.17323567 0.55060655 0.58637369
0.23445487 0.54422826 0.57296103
0.29709315 0.53293657 0.56896317
0.40964371 0.51587701 0.57053483
0.52658886 0.48226139 0.56467539
0.63038069 0.43476006 0.56728464
0.79436940 0.41300067 0.60944533
0.86189061 0.38817427 0.56023496
0.17315938 0.64379340 0.55715269
0.20019837 0.64629585 0.53449303
0.27278554 0.64484626 0.52512395
0.33527124 0.63947511 0.53247881
0.43282217 0.62944990 0.54236668
0.55777830 0.62763411 0.55365837
0.66498816 0.62340736 0.55336845
0.82319373 0.57444113 0.55732054
0.89976346 0.54218358 0.52390325
0.18947127 0.73203629 0.44476998
0.23770504 0.74111545 0.42114902
0.31842527 0.74819565 0.41850919
0.37552452 0.75693905 0.42638284
0.44489205 0.76963454 0.44299993
0.56098270 0.77824062 0.46152437
0.68455023 0.79673457 0.49059281
0.83840698 0.79435414 0.49619287
0.95521480 0.73841459 0.51143664
0.20263982 0.80494392 0.31976807
0.28870070 0.85737389 0.33960479
0.36945143 0.86697185 0.36157778
0.42780194 0.87647820 0.40616465
0.50003815 0.88735789 0.44483101
0.62217134 0.90399021 0.49140155
0.73569846 0.91972226 0.51203173
0.85212481 0.92678720 0.52237737
0.96708632 0.92329288 0.51244372
0.09063859 0.15121691 0.70640117
0.10782025 0.08331426 0.72948807
0.15777829 0.05534447 0.73656827
0.31140611 0.03895628 0.72678721
0.44190127 0.01882963 0.70473790
0.55986875 0.01629664 0.70368505
0.69288164 0.01663233 0.72408634
0.80537117 0.02508583 0.73603415
0.85668725 0.03436332 0.70678264
0.09939727 0.18599221 0.70585185
0.11160449 0.14715801 0.72523081
0.15815976 0.08271915 0.73051041
0.29655910 0.05233844 0.71432060
0.42491800 0.02847333 0.69739836
0.54467076 0.02001984 0.69568932
0.68854809 0.02185092 0.71699095
0.80680555 0.02891585 0.73292136
0.86099029 0.04310674 0.70847636
0.10846113 0.26507974 0.70473790
0.12481880 0.24165712 0.70597392
0.17380026 0.19414054 0.70803386
0.27533379 0.13795681 0.70640117
0.40189213 0.10638590 0.69295794
0.52375066 0.08155947 0.69059283
0.67170215 0.08082704 0.71395439
0.79954225 0.08072022 0.74056613
0.86189061 0.08108644 0.73212785
0.12947281 0.34415197 0.71781492
0.14901961 0.34195468 0.71248949
0.20158693 0.32825208 0.70122838
0.29031816 0.29208821 0.69250017
0.38496986 0.25181964 0.68769360
0.50128937 0.20117494 0.68982989
0.63923097 0.18469520 0.71384758
0.76447701 0.17352560 0.74015409
0.84420538 0.17242695 0.74229038
0.14407569 0.44870681 0.71873045
0.16260013 0.44290838 0.71413749
0.20836194 0.43521783 0.70917833
0.28696117 0.42188144 0.70438695
0.38861677 0.39444572 0.70167089
0.50647748 0.34637979 0.69631493
0.61321431 0.29742885 0.69262224
0.74601358 0.29111162 0.73842984
0.86735332 0.28825819 0.74949265
0.15390250 0.55576408 0.70794231
0.16676585 0.55028611 0.69916838
0.21670863 0.54416722 0.68876171
0.27107653 0.53534752 0.68210882
0.38403907 0.51818115 0.67832458
0.52690929 0.49346152 0.68336004
0.62499428 0.44229800 0.68419927
0.76737618 0.41229877 0.71960020
0.88796824 0.39723811 0.71261156
0.16870375 0.65003431 0.67090869
0.18234532 0.64881361 0.65610743
0.24216068 0.64652479 0.64274055
0.28931105 0.64524299 0.63773555
0.39549857 0.63889527 0.64304572
0.54654765 0.63053328 0.66225684
0.65708399 0.61675441 0.66457617
0.82258338 0.56044859 0.68738842
0.90449381 0.52626842 0.63508052
0.19540703 0.74207675 0.58570230
0.21908903 0.75315481 0.56041807
0.27490655 0.75910580 0.53905547
0.33368430 0.76667428 0.53507286
0.41092545 0.77645534 0.54471654
0.54157323 0.78794539 0.57347983
0.68470281 0.80445564 0.60535592
0.83807129 0.79575801 0.61498433
0.96388191 0.74480814 0.61165792
0.19745174 0.78942549 0.43608758
0.25343710 0.84846264 0.43729305
0.32022583 0.86274511 0.44669262
0.37824064 0.87107652 0.47824827
0.45786220 0.87995726 0.50281531
0.58530557 0.89663541 0.56607920
0.72315556 0.91537344 0.61237508
0.85287249 0.92797744 0.62764937
0.97358662 0.92481881 0.61719692
0.09988556 0.15875487 0.77042800
0.11383230 0.09161517 0.79844356
0.14663920 0.06356908 0.80498970
0.26358435 0.04773022 0.80152589
0.41397727 0.02737468 0.79247731
0.53014421 0.01599145 0.78611428
0.65790796 0.02114900 0.80436409
0.78542763 0.02520790 0.81705958
0.87249559 0.03385977 0.81782252
0.10666056 0.19952697 0.78323036
0.11717403 0.16223392 0.79917604
0.14370947 0.09782559 0.80280769
0.24866103 0.06175326 0.80100709
0.38706034 0.04119936 0.79435414
0.50925457 0.02044709 0.78342873
0.64899671 0.02887007 0.79784846
0.78582436 0.02911421 0.81153584
0.87544060 0.03971924 0.81574732
0.11663996 0.28821242 0.78999007
0.12790112 0.25683987 0.79439992
0.16549934 0.21066606 0.79807734
0.24271001 0.15419242 0.80094606
0.35288015 0.11306936 0.79481190
0.48068970 0.07669184 0.78382546
0.63637751 0.07612726 0.79664302
0.77346456 0.07786679 0.81412983
0.88053709 0.08093385 0.83004498
0.13803311 0.36624706 0.80579841
0.14618143 0.36313421 0.80103761
0.19439994 0.34517434 0.79392689
0.26941329 0.30789655 0.79047835
0.35188830 0.26160067 0.78715193
0.46207371 0.20306706 0.78638893
0.60601205 0.17743191 0.79526973
0.74940109 0.16929884 0.81878388
0.87837034 0.16896315 0.82662702
0.14428931 0.45255208 0.81786829
0.15374990 0.45122454 0.81408405
0.19501030 0.44759288 0.80775160
0.27231249 0.43343252 0.80268556
0.36180666 0.39914548 0.79429311
0.47702754 0.34885177 0.79102767
0.59772640 0.29433128 0.79136342
0.73887235 0.27750057 0.80975050
0.87847716 0.27029830 0.81329060
0.14996567 0.55443656 0.81293964
0.15890746 0.54897386 0.80674452
0.20328069 0.54145116 0.79908448
0.26152438 0.53620201 0.79441518
0.36865798 0.52092773 0.79195851
0.50269324 0.49103531 0.78757918
0.61264974 0.44411382 0.78335243
0.74283969 0.40427253 0.80051881
0.89671171 0.39444572 0.82767987
0.16568246 0.65339130 0.78066683
0.17454796 0.64959180 0.77235067
0.22525369 0.64751661 0.76639962
0.27292287 0.64478523 0.76502633
0.36891738 0.63758296 0.76685739
0.51120776 0.63236439 0.77186239
0.63836116 0.61332113 0.77886623
0.78944075 0.54608989 0.80329597
0.92310977 0.51938659 0.78837264
0.20224307 0.74885178 0.70884258
0.21530479 0.75965512 0.69742888
0.26315710 0.76453805 0.68374151
0.31094834 0.77228963 0.67824829
0.37793547 0.78321505 0.68027771
0.50751507 0.80198365 0.69790190
0.67028308 0.81110859 0.73231095
0.82478064 0.79728389 0.74393833
0.96055543 0.73353171 0.74850082
0.20889601 0.79673457 0.57837796
0.24725719 0.84205389 0.57500571
0.29381245 0.85552758 0.58181125
0.34441137 0.86268407 0.60570687
0.39731440 0.86778057 0.60502023
0.52448308 0.88500804 0.64142823
0.68021667 0.90742350 0.70164037
0.83976501 0.92277408 0.74827194
0.97672999 0.92283511 0.73344016
0.10400549 0.16781873 0.81599146
0.11451896 0.10492104 0.82935834
0.13987945 0.07048142 0.84296942
0.22015716 0.05456626 0.85069048
0.36644542 0.03816281 0.85302508
0.48615244 0.01809720 0.85271990
0.61667812 0.02575723 0.86280614
0.75504690 0.02594034 0.88874650
0.86842144 0.02566567 0.89192033
0.11816587 0.21313801 0.83201343
0.12445258 0.17532617 0.83883423
0.14074922 0.11309987 0.84480047
0.20743114 0.07162585 0.85159075
0.32918289 0.05146868 0.85450524
0.45867094 0.02406348 0.85737389
0.60700387 0.03118944 0.86851299
0.75495535 0.03254749 0.89161515
0.86984056 0.03866636 0.88917375
0.12457465 0.30450904 0.85209429
0.12988479 0.26773480 0.85432214
0.15860227 0.22574197 0.85558861
0.21713588 0.17019913 0.85900664
0.30276951 0.12619211 0.86442357
0.42471960 0.08169680 0.86396581
0.59269094 0.07367056 0.87467766
0.74900436 0.06956588 0.89433128
0.86933702 0.08180362 0.89216447
0.14589150 0.38179597 0.87019151
0.14993516 0.37639430 0.87100023
0.18564126 0.35236132 0.87136644
0.25044632 0.31473258 0.87064928
0.32121766 0.26779583 0.86808574
0.42212558 0.20972000 0.86938280
0.56488901 0.17146564 0.87653923
0.72927445 0.16269170 0.89297324
0.87129015 0.16829175 0.88160527
0.14343481 0.45951018 0.88215458
0.15005723 0.46103609 0.88329899
0.18161288 0.45763332 0.88276494
0.25983062 0.44306096 0.87745482
0.33965057 0.40802625 0.86965746
0.44283208 0.35295644 0.87034410
0.56556040 0.29416344 0.87292284
0.72233158 0.27449456 0.88276494
0.88432133 0.26504922 0.87931639
0.14747845 0.54865336 0.88209355
0.15344472 0.54758525 0.88191044
0.19327077 0.54868388 0.88256657
0.25021744 0.54586101 0.87937742
0.35268179 0.52890819 0.87124437
0.48458076 0.49942780 0.87214464
0.58426797 0.44960707 0.87110704
0.72581065 0.39560542 0.88679332
0.90785074 0.37781337 0.89697111
0.16266118 0.64815748 0.86474401
0.17248799 0.64539558 0.86626995
0.21512169 0.64393073 0.86573589
0.25889984 0.64309150 0.86509496
0.35751888 0.63825434 0.87052721
0.49887845 0.63193715 0.88075072
0.61646450 0.61075759 0.88505381
0.76057070 0.52822155 0.89834440
0.93846035 0.50327307 0.90075535
0.20004578 0.75788510 0.81557947
0.21226825 0.76841384 0.81333637
0.25171283 0.77128249 0.81113911
0.29831389 0.77900356 0.81532007
0.35928893 0.78587013 0.82420081
0.49002823 0.80283821 0.85181963
0.64170289 0.80741590 0.87122911
0.80196840 0.78506142 0.87570000
0.95277333 0.70893413 0.87988096
0.23749141 0.82536048 0.69620812
0.24579233 0.84208441 0.71052110
0.29480430 0.85218585 0.73589683
0.33704129 0.85905242 0.74613565
0.39441520 0.86576641 0.75802243
0.50159454 0.88082701 0.78707558
0.63688105 0.89695585 0.82090485
0.80317390 0.91404593 0.85654992
0.96418709 0.92365909 0.85404748
0.11767758 0.18368810 0.82844281
0.13475242 0.12858778 0.83701837
0.15536736 0.08511482 0.85420007
0.20178531 0.07006943 0.86897075
0.30994126 0.05165179 0.88230717
0.43219653 0.02490272 0.89243913
0.57663846 0.02737468 0.90658426
0.73221940 0.03201343 0.93070877
0.85670251 0.02905318 0.93659878
0.13055620 0.23320363 0.84571600
0.13777371 0.19604792 0.85050738
0.15371938 0.13368429 0.86059356
0.19096667 0.08636606 0.87455559
0.27780575 0.06781109 0.88427556
0.39858091 0.03260853 0.89704740
0.56235600 0.03422599 0.91099411
0.72706187 0.03707942 0.93403524
0.85886931 0.03909361 0.94047457
0.13229571 0.31842527 0.87664604
0.13626307 0.28387883 0.87598991
0.16002136 0.24252689 0.87849241
0.20328069 0.19241627 0.88436711
0.27104601 0.15234607 0.89515525
0.37219808 0.10647745 0.90180820
0.53717864 0.08264286 0.92025638
0.71555656 0.07409781 0.94074923
0.85448998 0.08006409 0.94097811
0.15173571 0.39765012 0.89918363
0.15701534 0.38995957 0.90122837
0.17965972 0.36325628 0.90446329
0.24100100 0.32571909 0.90774393
0.29655910 0.28278020 0.90690470
0.38983750 0.22613871 0.90858322
0.52169073 0.18794537 0.91926450
0.70107573 0.16803235 0.94068819
0.85889983 0.16263066 0.93583584
0.15138476 0.47435722 0.91017014
0.15913634 0.47521171 0.91175705
0.18750286 0.47092393 0.91343558
0.25351340 0.45387959 0.91374075
0.33014420 0.41972992 0.91071945
0.42566568 0.36530098 0.91189438
0.53073931 0.30585185 0.91911191
0.69410241 0.27719539 0.93736172
0.87251085 0.26417944 0.93315023
0.16360724 0.55719846 0.90965134
0.16922255 0.56140995 0.91114670
0.19555962 0.56458384 0.91303885
0.24451056 0.56177616 0.91563284
0.34546426 0.54456395 0.91538870
0.47067979 0.51189440 0.91862363
0.56403446 0.46001375 0.92117190
0.70438695 0.39758909 0.94282442
0.89375144 0.37302205 0.94694436
0.17804226 0.64481574 0.90299839
0.18431373 0.64605170 0.90417331
0.21516746 0.65000379 0.90577555
0.26031891 0.65375751 0.90937668
0.34810406 0.64997327 0.91465628
0.48633555 0.64060426 0.92741281
0.59984744 0.61135274 0.93757534
0.73405051 0.51702142 0.95767146
0.92335391 0.48853284 0.96052492
0.20520332 0.75291067 0.88172734
0.21818875 0.76369882 0.88538951
0.25178912 0.76993972 0.88862437
0.29205769 0.77660793 0.89414817
0.34709698 0.78086519 0.90556192
0.47412834 0.79674983 0.93530172
0.62534523 0.79851985 0.95504689
0.78039217 0.76678109 0.97395283
0.95130849 0.67066455 0.97395283
0.23859006 0.82023346 0.78733504
0.25284198 0.84325933 0.79215688
0.28038454 0.85221636 0.79960328
0.33104447 0.86237890 0.82862592
0.38107881 0.86707866 0.84197760
0.48474860 0.88235295 0.88149846
0.60560006 0.89774930 0.92237735
0.76960403 0.91709775 0.96562141
0.94779891 0.91819638 0.98158234
