data/textures/core.cube
TITLE "zbladetoohot_1.output2cyberpunk_verynice_1.output2.cube"
# Created by Imaging - supersinfulsilicon software
LUT_3D_SIZE 33
0.01846342 0.02438392 0.04211490
0.05999848 0.02496376 0.05221637
0.09442282 0.02273594 0.06149386
0.12780957 0.01745632 0.06961166
0.16205081 0.01324483 0.08061341
0.19897765 0.01017777 0.09735256
0.23292898 0.01034562 0.11506829
0.26280615 0.01081865 0.13018997
0.28941786 0.01159686 0.14340429
0.31378654 0.01249714 0.15414664
0.33467612 0.01324483 0.16137941
0.35347524 0.01516747 0.16784924
0.37199968 0.01666285 0.17293049
0.39217213 0.01763943 0.17839323
0.41400778 0.01858549 0.18474098
0.43686581 0.01950103 0.19095141
0.45954069 0.02114900 0.19681087
0.47878233 0.02487221 0.20119020
0.49730679 0.02885481 0.20593576
0.51505303 0.03274586 0.21173419
0.53333336 0.03596551 0.21866179
0.55178148 0.03782712 0.22539102
0.57219803 0.03649958 0.23221180
0.59310293 0.03504997 0.24057373
0.61412984 0.03836118 0.25169757
0.63242543 0.04278630 0.26309606
0.64844739 0.04609751 0.27298391
0.66347754 0.04879835 0.28122377
0.67786682 0.05212482 0.28900588
0.69504845 0.05627527 0.29892424
0.71404594 0.06077668 0.31097886
0.73237199 0.06449988 0.32393378
0.75077438 0.06608682 0.33815518
0.04907301 0.05383383 0.05716030
0.08053712 0.04069581 0.06250095
0.10717937 0.03549248 0.07035935
0.13189898 0.03030442 0.07621881
0.15948729 0.02328527 0.08044557
0.18744183 0.01690700 0.08789197
0.21393149 0.01452659 0.09854276
0.23939879 0.01406882 0.11032273
0.26442358 0.01486229 0.12121767
0.28964674 0.01547265 0.13157855
0.31415275 0.01600671 0.14047456
0.33791104 0.01750210 0.14947738
0.36148623 0.01901274 0.15762569
0.38593119 0.02012665 0.16495003
0.41086441 0.02121004 0.17264058
0.43599603 0.02255283 0.17943084
0.45928130 0.02441444 0.18484779
0.47948423 0.02816815 0.18881513
0.49851224 0.03208972 0.19383535
0.51647210 0.03604181 0.19867246
0.53528649 0.03915465 0.20511177
0.55416191 0.04106203 0.21058977
0.57486838 0.03984131 0.21634242
0.59681088 0.03840696 0.22374304
0.61713588 0.04165713 0.23340200
0.63559932 0.04617380 0.24357976
0.65110248 0.04953079 0.25296408
0.66535437 0.05233844 0.26108187
0.67911804 0.05563439 0.26906234
0.69633019 0.05969329 0.27963683
0.71514457 0.06408789 0.29234761
0.73336387 0.06753643 0.30643168
0.75162888 0.06884871 0.32173648
0.06514076 0.07794309 0.07626459
0.08433662 0.06738384 0.07687495
0.10312047 0.06167697 0.08194095
0.12568857 0.05432212 0.08450446
0.15240711 0.04542611 0.08941787
0.18097199 0.03509575 0.09570459
0.20833142 0.02778668 0.10476845
0.23550774 0.02265965 0.11403067
0.26144809 0.02024872 0.12327763
0.28726634 0.01951629 0.13220416
0.31210804 0.01950103 0.14059663
0.33633935 0.02055390 0.14950790
0.36035705 0.02148470 0.15783933
0.38490883 0.02221714 0.16525520
0.40973526 0.02328527 0.17328145
0.43537042 0.02453651 0.18052949
0.45871672 0.02633707 0.18605326
0.47910276 0.03007553 0.18995957
0.49810025 0.03393606 0.19481193
0.51595330 0.03787289 0.19894713
0.53487450 0.04093996 0.20498970
0.55396354 0.04284734 0.21055925
0.57468528 0.04173343 0.21635768
0.59662777 0.04029908 0.22381933
0.61713588 0.04336614 0.23343252
0.63559932 0.04803540 0.24365607
0.65117878 0.05140765 0.25281146
0.66547644 0.05435264 0.26045623
0.67939270 0.05772488 0.26820782
0.69663537 0.06190585 0.27841613
0.71578544 0.06623942 0.29138628
0.73401999 0.06973373 0.30490577
0.75219351 0.07089341 0.31940186
0.07383841 0.09906157 0.09140154
0.08404669 0.09164569 0.08966202
0.09665065 0.08702220 0.09169146
0.11801328 0.08004883 0.09396505
0.14485389 0.07052720 0.09799344
0.17328145 0.05967803 0.10252537
0.20193790 0.04824903 0.10791180
0.23025864 0.03788815 0.11371023
0.25809109 0.02966354 0.12100405
0.28555733 0.02601663 0.12932020
0.31160450 0.02475013 0.13772793
0.33649194 0.02580301 0.14645609
0.36113527 0.02673381 0.15484856
0.38603801 0.02688640 0.16284429
0.41107804 0.02703899 0.17097734
0.43645379 0.02764935 0.17801175
0.45963225 0.02926680 0.18332189
0.47991151 0.03300526 0.18692301
0.49846646 0.03685054 0.19180590
0.51604486 0.04068055 0.19598688
0.53534752 0.04376287 0.20212100
0.55494010 0.04568551 0.20767529
0.57575339 0.04470893 0.21393149
0.59812313 0.04324407 0.22149996
0.61814296 0.04592966 0.23083848
0.63611811 0.05070573 0.24087892
0.65162128 0.05404745 0.24966812
0.66546118 0.05709926 0.25665674
0.67956054 0.06054780 0.26392004
0.69739836 0.06465247 0.27402151
0.71665519 0.06895552 0.28711376
0.73481345 0.07251087 0.30011445
0.75307852 0.07342641 0.31383231
0.08216983 0.11947814 0.10214389
0.08850233 0.11392386 0.10144198
0.09625391 0.10989548 0.10281529
0.10965133 0.10492104 0.10460059
0.13479820 0.09822232 0.10737774
0.16609445 0.08717480 0.10885786
0.19615473 0.07467765 0.11119249
0.22586404 0.06073091 0.11418326
0.25505456 0.04779126 0.11953918
0.28288701 0.03869688 0.12628366
0.31067368 0.03572137 0.13434044
0.33691919 0.03466850 0.14258030
0.36238652 0.03447013 0.15078965
0.38854048 0.03424124 0.15924315
0.41422141 0.03372244 0.16702525
0.43877319 0.03425650 0.17303731
0.46071565 0.03479057 0.17666896
0.48062867 0.03747616 0.17932403
0.49878690 0.04107729 0.18478675
0.51667047 0.04475471 0.18977645
0.53646141 0.04748607 0.19549859
0.55700010 0.04951553 0.20117494
0.57787442 0.04873732 0.20810254
0.60016787 0.04716564 0.21620508
0.61957735 0.04922561 0.22543679
0.63685054 0.05397116 0.23524834
0.65241474 0.05752651 0.24414435
0.66601050 0.06044099 0.25038528
0.68082702 0.06381323 0.25705349
0.69897002 0.06799420 0.26755169
0.71815062 0.07223621 0.28044558
0.73633933 0.07574578 0.29303426
0.75446707 0.07653926 0.30589762
0.09127947 0.14071870 0.11161975
0.09451438 0.13583581 0.11041428
0.10038911 0.13266194 0.11078050
0.10916305 0.12942703 0.11216907
0.12552072 0.12503242 0.11377127
0.15448233 0.11792172 0.11468681
0.18728924 0.10635538 0.11596857
0.21924162 0.09533837 0.11895934
0.24959183 0.08294804 0.12365911
0.27936217 0.07119860 0.12857252
0.30896467 0.06112764 0.13391317
0.33792630 0.05413901 0.13936065
0.36600289 0.04965286 0.14471656
0.39414054 0.04652476 0.15167467
0.42124057 0.04446479 0.15834287
0.44626534 0.04361029 0.16328679
0.46771953 0.04545663 0.16667430
0.48725107 0.04953079 0.16884108
0.50504309 0.05214008 0.17372397
0.52294195 0.05337606 0.17866789
0.54230565 0.05452048 0.18469520
0.56250858 0.05551232 0.19143969
0.58297092 0.05429160 0.19917601
0.60363168 0.05227741 0.20782788
0.62249178 0.05409323 0.21689174
0.63886476 0.05941863 0.22563516
0.65421528 0.06315709 0.23305105
0.66736859 0.06491188 0.23717098
0.68223089 0.06761272 0.24310674
0.70041960 0.07177844 0.25358969
0.71982908 0.07602045 0.26608682
0.73798734 0.08004883 0.27809566
0.75631344 0.08108644 0.29031816
0.09962615 0.16400397 0.11787594
0.10260166 0.16018921 0.11718929
0.10663004 0.15817502 0.11747921
0.11166552 0.15646601 0.11874571
0.12121767 0.15426871 0.12059205
0.14331274 0.15020981 0.12256046
0.17569238 0.14338903 0.12518501
0.20932326 0.13424887 0.12800793
0.24368659 0.12225528 0.13031204
0.27670711 0.10812543 0.13182269
0.30841535 0.09379721 0.13324177
0.33933014 0.08220035 0.13522545
0.36823073 0.07299916 0.13876554
0.39690241 0.06741436 0.14578469
0.42424658 0.06327917 0.15306325
0.45078203 0.06245518 0.15959410
0.47290760 0.06427100 0.16247806
0.49274433 0.06645304 0.16357672
0.51065844 0.06810101 0.16658275
0.52870983 0.06900129 0.16995499
0.54810405 0.06814680 0.17444114
0.56832224 0.06485084 0.17863737
0.58893722 0.06134127 0.18365759
0.60837722 0.05970855 0.18960860
0.62568092 0.06350805 0.19674982
0.64155030 0.06741436 0.20434882
0.65653467 0.06945907 0.20993362
0.66958112 0.07077134 0.21573205
0.68400091 0.07290760 0.22308689
0.70209813 0.07711910 0.23596552
0.72147709 0.08187991 0.24951553
0.73977262 0.08569467 0.26227206
0.75815976 0.08657969 0.27457085
0.11374075 0.18789959 0.12579538
0.11792172 0.18487830 0.12613107
0.11920348 0.18396276 0.12683299
0.12132448 0.18335241 0.12834363
0.12475777 0.18268101 0.13057145
0.14157321 0.18028535 0.13353170
0.17007706 0.17660792 0.13690394
0.20184635 0.17074846 0.13917755
0.23608759 0.16101320 0.14125277
0.26985580 0.15140001 0.14282444
0.30244908 0.13785000 0.14378576
0.33316550 0.12301823 0.14526589
0.36197451 0.10965133 0.14750896
0.39218739 0.09970245 0.15164416
0.42224765 0.09253071 0.15732051
0.45172808 0.08766308 0.16290532
0.47568476 0.08661021 0.16348515
0.49704736 0.08760204 0.16314946
0.51543450 0.08877699 0.16296636
0.53420311 0.08911268 0.16372931
0.55414665 0.08725109 0.16481270
0.57401389 0.08368047 0.16737621
0.59378958 0.07861448 0.17021438
0.61155111 0.07737850 0.17624170
0.62833601 0.07718013 0.18344396
0.64431220 0.07885863 0.19040208
0.65949494 0.07931639 0.19655146
0.67295337 0.07959106 0.20318913
0.68714428 0.08142214 0.21109331
0.70521098 0.08487068 0.22252232
0.72465098 0.08929580 0.23491265
0.74296176 0.09213398 0.24559395
0.76113528 0.09251545 0.25610742
0.13107499 0.21217670 0.13363852
0.13574426 0.21011673 0.13524070
0.13540857 0.20981155 0.13586633
0.13533227 0.20994888 0.13748379
0.13813992 0.20984207 0.14013886
0.14602885 0.20914015 0.14352636
0.16766614 0.20788892 0.14743267
0.19528496 0.20498970 0.15060654
0.22877851 0.20032044 0.15338369
0.26263827 0.19101244 0.15512322
0.29698634 0.17969024 0.15623713
0.32712290 0.16623178 0.15667963
0.35513848 0.15304799 0.15704586
0.38323033 0.14201571 0.15921263
0.41263446 0.13385214 0.16330205
0.44304571 0.12884718 0.16923781
0.47022203 0.12703136 0.17090105
0.49474326 0.12625314 0.17120622
0.51483941 0.12628366 0.16873427
0.53571373 0.12387274 0.16687267
0.55661857 0.11999695 0.16534676
0.57785916 0.11396963 0.16665904
0.59716183 0.10823224 0.16910048
0.61451131 0.10310521 0.17373922
0.63123524 0.10038911 0.17978179
0.64783704 0.09747463 0.18435951
0.66285193 0.09628443 0.18991378
0.67670709 0.09636072 0.19549859
0.69071490 0.09713893 0.20285344
0.70875102 0.09919890 0.21393149
0.72817576 0.10147250 0.22510108
0.74644083 0.10208286 0.23512627
0.76484323 0.10055695 0.24597543
0.14920272 0.23627070 0.14035249
0.15107958 0.23547722 0.14373998
0.14975204 0.23569085 0.14445716
0.14932479 0.23604181 0.14605936
0.15184252 0.23620966 0.14845502
0.15402457 0.23654535 0.15135424
0.16412604 0.23657587 0.15460441
0.18768597 0.23465323 0.15703060
0.21925689 0.23129626 0.15909056
0.25291827 0.22586404 0.16177616
0.28813612 0.21997406 0.16522469
0.31903562 0.21182574 0.16659801
0.34729534 0.20244144 0.16769665
0.37436485 0.19163805 0.16922255
0.40271610 0.18295567 0.17248799
0.43231860 0.17602807 0.17700465
0.46228734 0.17204547 0.18045320
0.48955521 0.16910048 0.18149081
0.51351184 0.16633859 0.17871366
0.53563744 0.16244754 0.17524986
0.55704588 0.15729000 0.17221332
0.57904935 0.15086594 0.17341879
0.59800106 0.14467078 0.17547876
0.61643398 0.13966583 0.17936981
0.63422596 0.13592736 0.18335241
0.65134662 0.13266194 0.18754864
0.66657513 0.12991531 0.19261463
0.68055236 0.12677196 0.19784848
0.69465172 0.12285039 0.20439459
0.71250474 0.11886778 0.21387045
0.73174638 0.11699092 0.22212557
0.75013351 0.11400015 0.23007554
0.76861221 0.11210804 0.23926146
0.16246280 0.26115817 0.14787517
0.16409552 0.26077670 0.15187305
0.16356145 0.26085299 0.15199512
0.16327153 0.26120394 0.15326162
0.16418707 0.26160067 0.15466544
0.16403449 0.26236361 0.15654230
0.16989395 0.26218051 0.15851071
0.18783855 0.26114291 0.16101320
0.21359579 0.26012054 0.16452277
0.24530403 0.25856411 0.16874953
0.27843139 0.25499353 0.17306782
0.31126878 0.24876784 0.17611963
0.34172580 0.24191654 0.17871366
0.36887160 0.23294424 0.18051423
0.39633784 0.22505531 0.18309300
0.42427710 0.21696803 0.18593118
0.45461205 0.21268025 0.19009690
0.48302433 0.20892653 0.19208057
0.51017016 0.20541695 0.19157702
0.53331810 0.20172428 0.18878461
0.55565727 0.19671930 0.18612956
0.57846951 0.19105822 0.18623637
0.59873348 0.18460365 0.18701458
0.61879909 0.17950714 0.18927291
0.63796443 0.17535669 0.19208057
0.65464258 0.17154193 0.19537652
0.66959637 0.16672008 0.19931334
0.68378729 0.16182193 0.20335698
0.69797820 0.15648127 0.20833142
0.71570915 0.15191883 0.21521324
0.73524070 0.14673075 0.22241551
0.75391775 0.14013886 0.22995345
0.77235067 0.13501182 0.23852903
0.17563134 0.28586251 0.15555046
0.17917143 0.28520638 0.15873961
0.18115512 0.28503853 0.15881591
0.18033113 0.28549629 0.15976197
0.18057527 0.28619823 0.16124208
0.18091096 0.28708324 0.16305791
0.18455787 0.28720531 0.16495003
0.19488823 0.28738841 0.16763562
0.21213092 0.28708324 0.17114519
0.24017701 0.28665599 0.17599756
0.27098498 0.28534371 0.18109407
0.30357823 0.28134584 0.18573281
0.33534753 0.27711910 0.18982223
0.36403447 0.27051193 0.19165331
0.39056993 0.26324865 0.19273670
0.41710538 0.25514612 0.19412528
0.44681469 0.25032425 0.19874877
0.47605097 0.24560922 0.20274663
0.50589764 0.24139772 0.20642404
0.53089190 0.23724727 0.20460823
0.55582511 0.23212025 0.20224307
0.57892728 0.22710003 0.19966429
0.60062563 0.22207980 0.19851987
0.62137789 0.21791409 0.19958800
0.64138246 0.21416037 0.20154116
0.65726709 0.20900282 0.20390631
0.67240405 0.20346379 0.20711070
0.68671703 0.19809262 0.21028458
0.70075530 0.19369802 0.21417563
0.71824217 0.18881513 0.22018768
0.73786527 0.18155184 0.22749676
0.75669491 0.17305256 0.23541619
0.77537191 0.16501106 0.24388495
0.19034104 0.31059739 0.16519417
0.19613947 0.30994126 0.16853590
0.19885558 0.30978867 0.16876478
0.19858091 0.31033799 0.16968033
0.19766536 0.31119248 0.17106889
0.19909972 0.31218433 0.17279316
0.20091555 0.31294727 0.17465477
0.20544747 0.31381705 0.17720301
0.21989776 0.31381705 0.18045320
0.24200809 0.31352714 0.18481727
0.26736858 0.31302357 0.18905929
0.29672694 0.31158924 0.19345388
0.32599375 0.30826277 0.19662775
0.35671017 0.30447853 0.19957274
0.38562599 0.29806975 0.20164797
0.41286334 0.29098955 0.20407416
0.44089419 0.28468758 0.20894179
0.47019151 0.27891967 0.21420614
0.50107574 0.27405202 0.22012664
0.52944231 0.26968795 0.22052339
0.55724424 0.26518655 0.21905851
0.58152133 0.26141757 0.21432821
0.60424203 0.25835049 0.21188678
0.62449074 0.25461203 0.21081865
0.64466316 0.25027847 0.21162738
0.65989166 0.24425116 0.21307698
0.67531854 0.23860532 0.21553369
0.68924999 0.23317312 0.21838713
0.70243382 0.22734417 0.22197299
0.71937132 0.22058442 0.22729839
0.73896390 0.21219195 0.23343252
0.75812924 0.20300603 0.23973449
0.77705044 0.19403373 0.24658579
0.20343328 0.33597314 0.17624170
0.21100175 0.33502710 0.17930877
0.21374838 0.33482870 0.17935455
0.21411459 0.33537805 0.18030061
0.21274129 0.33633935 0.18161288
0.21390097 0.33723965 0.18316931
0.21509117 0.33830777 0.18486305
0.21704432 0.33928436 0.18692301
0.22772564 0.33949798 0.18933395
0.24368659 0.33934540 0.19217212
0.26329443 0.33911651 0.19491875
0.28943312 0.33870450 0.19824521
0.31790647 0.33667505 0.20218204
0.34901962 0.33517969 0.20778210
0.38002595 0.33064774 0.21286336
0.40968949 0.32495612 0.21738003
0.43619439 0.31717402 0.22064546
0.46478981 0.31058213 0.22528420
0.49539942 0.30466163 0.23070115
0.52802318 0.30019075 0.23425651
0.55881590 0.29620814 0.23483634
0.58558023 0.29245442 0.23099108
0.60917068 0.28943312 0.22786297
0.62919050 0.28548104 0.22464332
0.64815748 0.28143740 0.22412452
0.66367590 0.27566949 0.22389562
0.67798889 0.26977950 0.22507057
0.69163042 0.26392004 0.22684062
0.70460057 0.25687039 0.22914474
0.72037840 0.24933241 0.23288319
0.73983365 0.24092470 0.23709469
0.75939572 0.23196766 0.24147402
0.77901882 0.22304112 0.24776074
0.20845349 0.36084536 0.18475623
0.21744107 0.35941100 0.18725872
0.22020294 0.35928893 0.18739605
0.22079805 0.35973144 0.18808271
0.21989776 0.36055544 0.18927291
0.21969940 0.36154726 0.19067673
0.22095063 0.36270696 0.19217212
0.22262913 0.36377507 0.19391166
0.23027390 0.36427864 0.19583429
0.24229801 0.36432442 0.19801633
0.26144809 0.36433968 0.20108339
0.28386357 0.36432442 0.20468453
0.31361869 0.36476693 0.21097124
0.34248874 0.36437020 0.21792935
0.37454796 0.36182192 0.22421607
0.40469977 0.35719845 0.22885481
0.43173876 0.34886703 0.23007554
0.46024263 0.34119174 0.23309682
0.48995194 0.33421835 0.23695736
0.52527654 0.32925919 0.24271001
0.55797666 0.32507819 0.24522774
0.58870834 0.32098877 0.24530403
0.61286336 0.31766233 0.24197757
0.63411915 0.31395438 0.23837644
0.65145344 0.30914778 0.23631647
0.66675824 0.30408180 0.23477530
0.68101013 0.29860380 0.23410392
0.69413292 0.29279011 0.23370717
0.70621806 0.28549629 0.23317312
0.72153813 0.27829403 0.23375295
0.74155796 0.27052721 0.23653010
0.76188296 0.26237887 0.24095522
0.78176546 0.25430685 0.24832532
0.21283284 0.38570228 0.19397269
0.22304112 0.38397804 0.19583429
0.22630656 0.38379490 0.19595636
0.22751202 0.38408485 0.19670404
0.22763409 0.38477150 0.19787900
0.22685587 0.38577861 0.19919127
0.22848859 0.38702983 0.20064087
0.23054856 0.38825056 0.20218204
0.23712520 0.38930342 0.20442511
0.24933241 0.39008164 0.20752269
0.26553750 0.39038682 0.21139848
0.28380254 0.39061570 0.21512169
0.31094834 0.39154649 0.22000457
0.33775845 0.39186695 0.22520791
0.36876479 0.39078355 0.23100634
0.39798582 0.38715190 0.23437858
0.42722210 0.38097200 0.23633173
0.45558861 0.37163347 0.23823911
0.48523688 0.36313421 0.24139772
0.51984435 0.35700008 0.24827954
0.55503166 0.35231555 0.25333029
0.58979172 0.34827191 0.25787747
0.61484700 0.34489968 0.25494775
0.63758296 0.34105441 0.25206378
0.65413898 0.33679712 0.24765393
0.66968793 0.33250934 0.24356450
0.68352789 0.32767224 0.23990235
0.69593346 0.32164493 0.23654535
0.70804912 0.31454948 0.23372243
0.72404057 0.30759135 0.23282215
0.74436563 0.30064851 0.23509575
0.76514840 0.29297322 0.24011597
0.78541237 0.28534371 0.24917983
0.22920577 0.41165790 0.20697337
0.24036011 0.40994889 0.20856032
0.24420539 0.40973526 0.20875868
0.24602121 0.40988785 0.20941481
0.24716564 0.41034561 0.21051347
0.24626535 0.41132221 0.21168841
0.24679942 0.41263446 0.21301594
0.24893568 0.41397727 0.21448082
0.25241473 0.41527429 0.21640345
0.26135653 0.41660181 0.21872282
0.27435720 0.41702908 0.22154574
0.28967726 0.41739529 0.22384985
0.31178761 0.41800565 0.22635233
0.33594263 0.41875333 0.22958724
0.36510262 0.41915008 0.23443961
0.39336231 0.41689172 0.23825437
0.42299536 0.41251239 0.24118410
0.45094988 0.40338752 0.24254215
0.48108643 0.39443046 0.24641794
0.51383233 0.38583964 0.25223163
0.55036241 0.38062105 0.25964752
0.58634317 0.37576866 0.26631570
0.61493856 0.37180132 0.26569009
0.63906312 0.36820021 0.26236361
0.65619898 0.36455330 0.25448996
0.67167163 0.36081484 0.24730296
0.68580151 0.35655758 0.24042115
0.69768828 0.35059130 0.23570611
0.71067369 0.34395361 0.23254749
0.72755015 0.33763638 0.23172350
0.74801248 0.33116657 0.23395133
0.76916152 0.32405585 0.24031433
0.78962386 0.31689936 0.25189593
0.24081789 0.43793392 0.21745633
0.25302511 0.43624017 0.21876860
0.25763333 0.43590447 0.21899748
0.26044098 0.43602654 0.21972992
0.26251620 0.43633172 0.22064546
0.26181430 0.43729305 0.22156100
0.26083773 0.43857482 0.22247654
0.26254672 0.44000915 0.22348364
0.26465249 0.44148928 0.22494850
0.26938277 0.44299993 0.22659647
0.28210878 0.44393072 0.22839704
0.29613185 0.44467843 0.23044175
0.31338978 0.44525826 0.23154040
0.33554590 0.44605172 0.23384450
0.36208132 0.44669262 0.23770504
0.39053941 0.44597542 0.24170291
0.42034027 0.44309148 0.24499886
0.44817272 0.43549249 0.24618906
0.47782102 0.42656595 0.24919508
0.50862896 0.41556421 0.25268939
0.54631877 0.40930802 0.25986114
0.58167392 0.40332645 0.26453039
0.61301595 0.39923704 0.26526284
0.63746089 0.39557490 0.26138705
0.65725183 0.39200428 0.25398642
0.67362475 0.38808271 0.24649423
0.68896008 0.38403907 0.23932250
0.70012969 0.37836272 0.23422599
0.71441215 0.37344930 0.23150988
0.73185319 0.36893263 0.23109789
0.75236136 0.36275274 0.23447013
0.77396810 0.35587090 0.24324407
0.79523921 0.34894332 0.25770962
0.24988174 0.46491188 0.22523843
0.26295874 0.46326390 0.22630656
0.26883346 0.46276036 0.22662699
0.27287710 0.46276036 0.22734417
0.27602044 0.46283665 0.22801556
0.27566949 0.46375218 0.22880903
0.27362478 0.46509498 0.22955672
0.27464715 0.46660563 0.23042649
0.27658504 0.46819258 0.23154040
0.27963683 0.46973372 0.23276111
0.28912795 0.47089341 0.23398185
0.30199131 0.47171742 0.23486686
0.31499198 0.47232777 0.23535515
0.33585107 0.47309071 0.23712520
0.35992980 0.47360951 0.23953612
0.38875410 0.47385368 0.24321355
0.41843289 0.47199208 0.24655527
0.44788280 0.46773478 0.24934767
0.47507438 0.45716029 0.25024796
0.50498205 0.44588387 0.25159076
0.54174107 0.43704891 0.25694668
0.57724881 0.43004501 0.26025787
0.61097121 0.42565042 0.26230258
0.63572139 0.42195773 0.25783169
0.65844208 0.41832608 0.25162128
0.67547113 0.41504538 0.24435797
0.69126421 0.41174945 0.23826963
0.70278478 0.40814832 0.23352407
0.71796751 0.40447089 0.23166247
0.73638517 0.40085450 0.23245594
0.75739682 0.39394218 0.23831540
0.77967501 0.38707560 0.24969864
0.80157167 0.37996492 0.26520181
0.25600061 0.49106583 0.22981612
0.26982528 0.48947892 0.23125048
0.27704281 0.48903638 0.23202869
0.28232244 0.48903638 0.23299001
0.28648815 0.48912793 0.23392081
0.28690013 0.49013504 0.23489739
0.28467232 0.49149311 0.23549248
0.28439766 0.49294269 0.23602656
0.28667125 0.49437705 0.23640803
0.28940260 0.49570459 0.23672846
0.29669642 0.49698633 0.23689632
0.30719462 0.49782559 0.23704891
0.31934083 0.49869534 0.23721676
0.33794156 0.49906158 0.23831540
0.35997558 0.49919891 0.24005494
0.38754863 0.49933624 0.24327458
0.41657129 0.49799344 0.24640268
0.44660106 0.49585718 0.24922560
0.47377738 0.48619822 0.24872206
0.50308996 0.47544059 0.24905775
0.53717864 0.46392006 0.25172809
0.57244223 0.45661098 0.25488669
0.60834670 0.45108721 0.25850308
0.63381398 0.44788280 0.25415426
0.65822846 0.44510567 0.24969864
0.67704278 0.44281682 0.24335088
0.69280535 0.44058901 0.23862058
0.70554668 0.43842220 0.23456168
0.72213322 0.43604180 0.23428702
0.74116123 0.43257800 0.23764400
0.76249331 0.42551309 0.24560922
0.78562599 0.41870755 0.25860989
0.80808729 0.41208515 0.27478448
0.25983062 0.51554132 0.23248646
0.27392995 0.51406121 0.23370717
0.28230718 0.51346606 0.23447013
0.28894484 0.51317614 0.23511101
0.29401085 0.51325244 0.23581292
0.29486534 0.51407647 0.23627070
0.29303426 0.51538873 0.23662165
0.29166093 0.51670098 0.23683529
0.29407188 0.51810485 0.23700313
0.29721522 0.51938659 0.23709469
0.30392921 0.52042419 0.23736934
0.31271839 0.52129394 0.23761348
0.32407111 0.52210271 0.23782712
0.34042877 0.52231634 0.23854429
0.36002135 0.52295721 0.24023804
0.38580912 0.52349126 0.24272527
0.41472495 0.52310979 0.24538033
0.44411382 0.52129394 0.24744029
0.47202259 0.51349658 0.24676891
0.50199133 0.50408179 0.24681468
0.53313494 0.49085221 0.24695201
0.56810862 0.48299381 0.25058365
0.60297549 0.47748530 0.25375754
0.63170826 0.47479972 0.25151446
0.65705347 0.47248036 0.24835584
0.67769891 0.47055772 0.24328984
0.69364464 0.46878767 0.24020752
0.70881206 0.46721599 0.23849851
0.72663462 0.46527809 0.24010071
0.74692911 0.46153963 0.24530403
0.76899368 0.45636684 0.25513086
0.79276723 0.45125505 0.26968795
0.81565577 0.44559395 0.28674755
0.26532388 0.53679711 0.23605707
0.27937743 0.53559166 0.23692684
0.28908217 0.53505760 0.23747616
0.29732203 0.53473717 0.23785764
0.30353245 0.53488976 0.23819333
0.30504310 0.53560692 0.23822385
0.30405128 0.53678185 0.23823911
0.30284581 0.53804839 0.23819333
0.30434120 0.53949797 0.23816282
0.30754557 0.54065764 0.23810178
0.31296253 0.54172581 0.23810178
0.32088196 0.54259557 0.23810178
0.33118182 0.54338902 0.23837644
0.34506753 0.54383153 0.23846799
0.36437020 0.54471654 0.23965819
0.38748759 0.54563212 0.24127565
0.41550317 0.54552531 0.24356450
0.44310674 0.54346532 0.24510567
0.47055772 0.53809416 0.24536507
0.50049591 0.53040361 0.24600595
0.53196001 0.52079040 0.24679942
0.56621653 0.51253527 0.25015640
0.59862667 0.50589764 0.25162128
0.62912947 0.50238806 0.25102618
0.65525293 0.50009918 0.24969864
0.67843139 0.49912262 0.24742503
0.69541466 0.49788663 0.24557869
0.71299309 0.49640650 0.24457160
0.73203629 0.49457541 0.24589914
0.75317007 0.49161518 0.25242999
