data/textures/core.cube
TITLE "zbladetoohot_1.output2cyberpunk_verynice_1.output2.cube"
# Created by Imaging - supersinfulsilicon software
LUT_3D_SIZE 5
0.01846342 0.02438392 0.04211490
0.28941786 0.01159686 0.14340429
0.45954069 0.02114900 0.19681087
0.61412984 0.03836118 0.25169757
0.75077438 0.06608682 0.33815518
0.13107499 0.21217670 0.13363852
0.22877851 0.20032044 0.15338369
0.47022203 0.12703136 0.17090105
0.63123524 0.10038911 0.17978179
0.76484323 0.10055695 0.24597543
0.22920577 0.41165790 0.20697337
0.25241473 0.41527429 0.21640345
0.42299536 0.41251239 0.24118410
0.65619898 0.36455330 0.25448996
0.78962386 0.31689936 0.25189593
0.28265813 0.59198904 0.22833601
0.33353171 0.60131228 0.23135729
0.42862591 0.61489278 0.23993286
0.65854889 0.60123599 0.26007476
0.87037462 0.58084995 0.32486457
0.33966583 0.84779125 0.21527427
0.40979630 0.86457616 0.22815290
0.53934538 0.88776988 0.24863051
0.72594798 0.91229117 0.26482034
0.92838943 0.91511405 0.28107119
0.05143816 0.12207218 0.44824904
0.25682458 0.02870222 0.44437325
0.48183414 0.01705959 0.39002061
0.65790796 0.03292897 0.39081407
0.77332723 0.05682460 0.44629586
0.07513542 0.20717174 0.39261463
0.21493858 0.18197909 0.37836272
0.43045700 0.11979858 0.39572749
0.65297931 0.10113680 0.41287860
0.78368813 0.09843595 0.43480584
0.12600900 0.43663692 0.36557564
0.24083315 0.41109329 0.36528572
0.41181049 0.38886091 0.38231480
0.67875183 0.32175174 0.40718699
0.80207521 0.28252080 0.36701000
0.17593652 0.61908901 0.32452887
0.31554133 0.61850917 0.35312429
0.44606698 0.61954683 0.35750362
0.65378803 0.59923702 0.36096743
0.88719004 0.55217820 0.38376439
0.24896620 0.83659112 0.23419547
0.39841306 0.87104601 0.29660487
0.54157323 0.89271384 0.32883191
0.73661405 0.91746396 0.36316472
0.95202565 0.91650265 0.36334783
0.07818723 0.13353170 0.63913941
0.17799649 0.04678416 0.65479517
0.45290303 0.01490806 0.61081862
0.72446781 0.01542687 0.64280158
0.82717633 0.04112306 0.58954757
0.09906157 0.24547188 0.62148470
0.18519875 0.18016326 0.60920119
0.42284274 0.10486000 0.59171432
0.68995196 0.08270390 0.63585871
0.82664227 0.09678797 0.65772486
0.13455406 0.44486153 0.61896694
0.21170367 0.43080798 0.59711605
0.41669336 0.39667353 0.60045779
0.63108265 0.30582133 0.61135274
0.85044634 0.27676815 0.61686122
0.17315938 0.64379340 0.55715269
0.27278554 0.64484626 0.52512395
0.43282217 0.62944990 0.54236668
0.66498816 0.62340736 0.55336845
0.89976346 0.54218358 0.52390325
0.20263982 0.80494392 0.31976807
0.36945143 0.86697185 0.36157778
0.50003815 0.88735789 0.44483101
0.73569846 0.91972226 0.51203173
0.96708632 0.92329288 0.51244372
0.09988556 0.15875487 0.77042800
0.14663920 0.06356908 0.80498970
0.41397727 0.02737468 0.79247731
0.65790796 0.02114900 0.80436409
0.87249559 0.03385977 0.81782252
0.11663996 0.28821242 0.78999007
0.16549934 0.21066606 0.79807734
0.35288015 0.11306936 0.79481190
0.63637751 0.07612726 0.79664302
0.88053709 0.08093385 0.83004498
0.14428931 0.45255208 0.81786829
0.19501030 0.44759288 0.80775160
0.36180666 0.39914548 0.79429311
0.59772640 0.29433128 0.79136342
0.87847716 0.27029830 0.81329060
0.16568246 0.65339130 0.78066683
0.22525369 0.64751661 0.76639962
0.36891738 0.63758296 0.76685739
0.63836116 0.61332113 0.77886623
0.92310977 0.51938659 0.78837264
0.20889601 0.79673457 0.57837796
0.29381245 0.85552758 0.58181125
0.39731440 0.86778057 0.60502023
0.68021667 0.90742350 0.70164037
0.97672999 0.92283511 0.73344016
0.11767758 0.18368810 0.82844281
0.15536736 0.08511482 0.85420007
0.30994126 0.05165179 0.88230717
0.57663846 0.02737468 0.90658426
0.85670251 0.02905318 0.93659878
0.13229571 0.31842527 0.87664604
0.16002136 0.24252689 0.87849241
0.27104601 0.15234607 0.89515525
0.53717864 0.08264286 0.92025638
0.85448998 0.08006409 0.94097811
0.15138476 0.47435722 0.91017014
0.18750286 0.47092393 0.91343558
0.33014420 0.41972992 0.91071945
0.53073931 0.30585185 0.91911191
0.87251085 0.26417944 0.93315023
0.17804226 0.64481574 0.90299839
0.21516746 0.65000379 0.90577555
0.34810406 0.64997327 0.91465628
0.59984744 0.61135274 0.93757534
0.92335391 0.48853284 0.96052492
0.23859006 0.82023346 0.78733504
0.28038454 0.85221636 0.79960328
0.38107881 0.86707866 0.84197760
0.60560006 0.89774930 0.92237735
0.94779891 0.91819638 0.98158234
