data/textures/zblade.cube
TITLE "brightershadowlandscape5sheepnightlumi.cube"
# Created by Imaging - supersinfulsilicon software
LUT_3D_SIZE 33
0.00000000 0.00114443 0.00967422
0.03656062 0.01045243 0.01979095
0.06134127 0.01522850 0.02716106
0.09170672 0.01571679 0.03164721
0.13009842 0.01266499 0.03103685
0.16655223 0.00924697 0.02644389
0.19966429 0.01432822 0.03305104
0.22928207 0.01831083 0.03613336
0.25760281 0.01876860 0.03747616
0.28664073 0.01863127 0.03750668
0.31692988 0.01963836 0.04028382
0.34415197 0.02594034 0.04670786
0.36963454 0.03140307 0.05130083
0.39652094 0.03471427 0.05416953
0.42388037 0.03762875 0.05703823
0.45358968 0.03814755 0.05911345
0.48328373 0.04020752 0.06173800
0.51160449 0.04895094 0.06773480
0.53962004 0.05923552 0.07428092
0.56958878 0.07031357 0.08065919
0.60161746 0.08007935 0.08587778
0.63425648 0.08546578 0.08725109
0.66831464 0.07936218 0.08419928
0.70029753 0.07309072 0.08508430
0.72642100 0.08505379 0.09596399
0.74795145 0.10074006 0.11090257
0.76197451 0.11027695 0.12237736
0.77088577 0.11331350 0.12790112
0.77735561 0.11564813 0.12928969
0.78323036 0.11804380 0.13231097
0.78797591 0.12036316 0.13827726
0.78791487 0.12271305 0.14522012
0.78791487 0.12491035 0.15626764
0.01458762 0.02304112 0.02745098
0.02313268 0.02880903 0.03204395
0.04733349 0.03326467 0.03669795
0.08140688 0.03231861 0.03607233
0.12384222 0.02458228 0.02838178
0.16308843 0.01754788 0.02609293
0.19600214 0.01998932 0.03073167
0.22555886 0.02470436 0.03732357
0.25421530 0.02560464 0.03840696
0.28383306 0.02548257 0.03965820
0.31497672 0.02606241 0.04388495
0.34265658 0.03106737 0.05032425
0.36826125 0.03662165 0.05490196
0.39525443 0.04034485 0.05778592
0.42319372 0.04373236 0.06172274
0.45282674 0.04466316 0.06482033
0.48171207 0.04689097 0.06765851
0.50992602 0.05548180 0.07342641
0.53798735 0.06564431 0.07983521
0.56781870 0.07652400 0.08580148
0.60001528 0.08598459 0.08989090
0.63279164 0.09112688 0.09106584
0.66672772 0.08532845 0.08838025
0.69877166 0.07859922 0.08981460
0.72526133 0.09024186 0.10061799
0.74692911 0.10583658 0.11520562
0.76191348 0.11543450 0.12649730
0.77096206 0.11837949 0.13160907
0.77741665 0.12072938 0.13238728
0.78330666 0.12303349 0.13554589
0.78797591 0.12536812 0.14212254
0.78791487 0.12765698 0.14882123
0.78788435 0.12991531 0.15936522
0.02539101 0.04948501 0.03903258
0.03347829 0.05336080 0.03913939
0.04602121 0.05676356 0.03544671
0.07534905 0.05532921 0.02497902
0.11839475 0.04821851 0.02378882
0.15884642 0.03747616 0.02696269
0.19131762 0.03369192 0.03425650
0.22163729 0.03404288 0.03913939
0.25137714 0.03402762 0.04051270
0.28165102 0.03427176 0.04220646
0.31300831 0.03518730 0.04667735
0.34135959 0.03976501 0.05285725
0.36710155 0.04365606 0.05719081
0.39417106 0.04638743 0.06042573
0.42197299 0.05008011 0.06527810
0.45180437 0.05133135 0.06909285
0.48024720 0.05342184 0.07196154
0.50840008 0.06184481 0.07743954
0.53655297 0.07171740 0.08369573
0.56635386 0.08229191 0.08920424
0.59867245 0.09158465 0.09217975
0.63158619 0.09671168 0.09338521
0.66544592 0.09106584 0.09123369
0.69732207 0.08404669 0.09336995
0.72420841 0.09480430 0.10356298
0.74610513 0.11071946 0.11828794
0.76177615 0.12046998 0.12968643
0.77096206 0.12361334 0.13418783
0.77744716 0.12585641 0.13459983
0.78333718 0.12817578 0.13780423
0.78800642 0.13049516 0.14551003
0.78794539 0.13284504 0.15191883
0.78791487 0.13510337 0.16163883
0.01751736 0.08346685 0.02787823
0.02290379 0.08657969 0.02725261
0.03425650 0.08976883 0.02684062
0.06521706 0.09051652 0.02642862
0.11151293 0.08393988 0.03138781
0.15107958 0.07670710 0.03826963
0.18449683 0.06848249 0.04121462
0.21474022 0.06205844 0.04133669
0.24505989 0.05418479 0.04138247
0.27762264 0.05043107 0.04444953
0.30937666 0.04901198 0.04885939
0.33797207 0.05476463 0.05444419
0.36499581 0.05902190 0.05824369
0.39246204 0.05963226 0.06271458
0.42029449 0.05960174 0.06729229
0.44904250 0.05833524 0.07138170
0.47827879 0.05944915 0.07449455
0.50650799 0.06749065 0.07981994
0.53473717 0.07718013 0.08570993
0.56444645 0.08741894 0.09019608
0.59723812 0.09677272 0.09297322
0.63027388 0.10200656 0.09390402
0.66373694 0.09695583 0.09361410
0.69565880 0.08981460 0.09625391
0.72292668 0.09918364 0.10556191
0.74520487 0.11560235 0.12066834
0.76148623 0.12558176 0.13199054
0.77088577 0.12890822 0.13553064
0.77738613 0.13113603 0.13531701
0.78332192 0.13342489 0.13855192
0.78800642 0.13580529 0.14821088
0.78794539 0.13809414 0.15451285
0.78791487 0.14044404 0.16220340
0.02896162 0.11772335 0.03828489
0.03039597 0.12008850 0.03900206
0.03228809 0.12252995 0.04037537
0.04191653 0.12512398 0.04214542
0.08836500 0.12504768 0.04794385
0.14277866 0.11546502 0.04843213
0.17972076 0.10870527 0.04681468
0.21092546 0.09922942 0.04406805
0.23993286 0.08844129 0.04483101
0.26761273 0.07718013 0.04739452
0.30008394 0.07721065 0.05156023
0.33035782 0.07925536 0.05548180
0.35857177 0.08094911 0.05937285
0.38742656 0.08075074 0.06379797
0.41599146 0.07775997 0.06791791
0.44443429 0.07598993 0.07171740
0.47423515 0.07205310 0.07525750
0.50356299 0.07528801 0.08076600
0.53182268 0.08416876 0.08632029
0.56177616 0.09388876 0.09054703
0.59491873 0.10156405 0.09228656
0.62848860 0.10730144 0.09329366
0.66144806 0.10305943 0.09564355
0.69355309 0.09568933 0.09881742
0.72138554 0.10313573 0.10684367
0.74387729 0.12005799 0.12172122
0.76096743 0.13092241 0.13336386
0.77077895 0.13426413 0.13522545
0.77732509 0.13655299 0.13408102
0.78324562 0.13884184 0.13929962
0.78805220 0.14114596 0.14969100
0.78794539 0.14352636 0.15649652
0.78794539 0.14573891 0.16168460
0.04126040 0.14699017 0.05114824
0.04159609 0.14874494 0.05113298
0.04278630 0.15083542 0.05139238
0.04629587 0.15341420 0.05198749
0.06611734 0.15587091 0.05358969
0.12037843 0.15289541 0.05343710
0.16995499 0.14338903 0.04986648
0.20898756 0.14062715 0.05157549
0.23872739 0.13246357 0.05525292
0.26625466 0.12483406 0.05831998
0.29446861 0.11975280 0.06054780
0.32425421 0.11700618 0.06222629
0.35324636 0.11639582 0.06478981
0.38188756 0.11268788 0.06750591
0.41077286 0.10791180 0.07022202
0.43964294 0.10049592 0.07281605
0.46976426 0.10075532 0.07682917
0.49997711 0.10867476 0.08218509
0.52985430 0.11316091 0.08700694
0.56086063 0.11302357 0.09082170
0.59351492 0.11409171 0.09304952
0.62674904 0.11616693 0.09491111
0.65943390 0.11052109 0.09739833
0.69024187 0.10278477 0.10104524
0.71775389 0.11198596 0.10955977
0.74042881 0.13209735 0.12475777
0.75877011 0.14373998 0.13488975
0.76990920 0.14233616 0.13263142
0.77680629 0.14184786 0.13127336
0.78280306 0.14416724 0.13955902
0.78791487 0.14666972 0.15062180
0.78782332 0.15185779 0.15777829
0.78782332 0.15439078 0.16028076
0.04428168 0.17390707 0.05542077
0.04362554 0.17575341 0.05511559
0.04423590 0.17769131 0.05517662
0.04779126 0.18016326 0.05575646
0.05722133 0.18277256 0.05642786
0.09872587 0.18280308 0.05706874
0.15167467 0.18008697 0.06115816
0.19647516 0.17320515 0.06565957
0.23373769 0.17099260 0.06851301
0.26416418 0.16704051 0.06994735
0.29169145 0.16189823 0.06991684
0.32050049 0.15783933 0.07009995
0.34918746 0.15341420 0.07090867
0.37753871 0.14906539 0.07272450
0.40524909 0.14218357 0.07516594
0.43489739 0.14105439 0.07983521
0.46565956 0.14462501 0.08459602
0.49600977 0.14821088 0.08871596
0.52677196 0.15133898 0.09225605
0.55884641 0.15164416 0.09414817
0.59189749 0.14717327 0.09485008
0.62549782 0.13550012 0.09430075
0.65879303 0.12442207 0.09561303
0.69040972 0.12039369 0.10153353
0.71636528 0.13699549 0.11477836
0.73984891 0.15146105 0.12883192
0.75997561 0.15599298 0.13186847
0.77105361 0.15432975 0.12924391
0.77689785 0.15251392 0.12832837
0.78236055 0.15558098 0.13937591
0.78770125 0.16035706 0.15127794
0.78806746 0.16443121 0.15722896
0.78799117 0.16571298 0.15909056
0.05412375 0.19983216 0.06741436
0.05270466 0.20177005 0.06706340
0.05297932 0.20376898 0.06720074
0.05691615 0.20631723 0.06756695
0.06155489 0.20943007 0.06849775
0.09143206 0.21211566 0.07161059
0.13884184 0.21377890 0.07479972
0.18585488 0.21115434 0.07705806
0.22420081 0.20276189 0.07852293
0.25940338 0.20059510 0.07895018
0.28915846 0.19757381 0.07806516
0.31709772 0.19269092 0.07780575
0.34473181 0.18783855 0.07766842
0.37428856 0.18564126 0.07954528
0.40379950 0.18445106 0.08464179
0.43248644 0.18387121 0.08958571
0.46234837 0.18487830 0.09332418
0.49188983 0.18942550 0.09710842
0.52256048 0.19252308 0.09958038
0.55518425 0.19153124 0.10003815
0.59011215 0.18451209 0.09777981
0.62436867 0.17358664 0.09607080
0.65732813 0.15945677 0.09533837
0.68834972 0.15884642 0.10458533
0.71593803 0.16272222 0.11734188
0.74116123 0.17248799 0.12674144
0.76342410 0.17285420 0.12651256
0.77662319 0.16989395 0.12642099
0.78214693 0.16957352 0.12967117
0.78741133 0.17207599 0.14009307
0.79238576 0.17636378 0.15138476
0.79197377 0.17840849 0.15445182
0.79093611 0.17972076 0.15571831
0.06999313 0.22388037 0.08026245
0.06817731 0.22595559 0.07946899
0.06686503 0.22806135 0.07931639
0.07043564 0.23071641 0.07927062
0.07574578 0.23399711 0.07975890
0.08685435 0.23807126 0.08136111
0.12899977 0.24148928 0.08372625
0.17451744 0.24179447 0.08426032
0.21518272 0.23718624 0.08400092
0.25023270 0.22789349 0.08413824
0.28468758 0.22545205 0.08477913
0.31479362 0.22436866 0.08627451
0.34373999 0.22343786 0.09021134
0.37303731 0.22241551 0.09410239
0.40238041 0.22247654 0.09723049
0.43150988 0.22314793 0.10058747
0.46109712 0.22568093 0.10363927
0.48958573 0.22964828 0.10635538
0.51827270 0.23262379 0.10672160
0.55226976 0.22888532 0.10414282
0.58799118 0.22192721 0.10164034
0.62336159 0.21393149 0.10049592
0.65662622 0.21072710 0.10420386
0.68778515 0.20930800 0.11165027
0.71677727 0.20872816 0.12133974
0.74418253 0.20532539 0.12372015
0.76729989 0.19644465 0.12573434
0.78272676 0.19369802 0.12704661
0.78867781 0.19261463 0.12991531
0.79382008 0.19345388 0.13919280
0.79856563 0.19609369 0.14557107
0.79838252 0.19780271 0.14747845
0.79740596 0.19894713 0.14840925
0.07885863 0.24704356 0.08911268
0.07669184 0.24911879 0.08776990
0.07461662 0.25130084 0.08714427
0.07589837 0.25389487 0.08685435
0.08197147 0.25700772 0.08706798
0.08610666 0.26076144 0.08793774
0.10739300 0.26530862 0.08935683
0.15133898 0.26707867 0.08972305
0.19656672 0.26529336 0.08908217
0.23726253 0.26045623 0.09138628
0.27742428 0.25674829 0.09658961
0.31502250 0.25720608 0.10122835
0.34598306 0.25853360 0.10498207
0.37543297 0.25877774 0.10824750
0.40454718 0.25896087 0.11096361
0.43305105 0.26028839 0.11273365
0.46215001 0.26236361 0.11435111
0.49065384 0.26491189 0.11392386
0.52005798 0.26614785 0.11123827
0.55178148 0.26460668 0.10818647
0.58701456 0.26048675 0.10800336
0.62269014 0.25711453 0.11175708
0.65685511 0.25470358 0.11662471
0.68854809 0.25433737 0.12307927
0.71857786 0.25336081 0.12684825
0.74702066 0.25012589 0.12918288
0.77239645 0.24463263 0.13105974
0.78852522 0.23863584 0.13160907
0.79566646 0.23077744 0.13342489
0.80083925 0.22096589 0.14019990
0.80558479 0.22226292 0.14181735
0.80570686 0.22401769 0.14253452
0.80479133 0.22552834 0.14322118
0.07803464 0.27003890 0.09352255
0.07592890 0.27202258 0.09217975
0.07373159 0.27403677 0.09146257
0.07263295 0.27655452 0.09106584
0.07895018 0.27959105 0.09112688
0.08424506 0.28329900 0.09196612
0.09207294 0.28778514 0.09359884
0.12790112 0.29129472 0.09623865
0.17804226 0.29521629 0.10096895
0.22561990 0.29825285 0.10569924
0.26607156 0.29382771 0.10965133
0.30923933 0.29219502 0.11512932
0.34717327 0.29231709 0.11967651
0.37836272 0.29376668 0.12263676
0.40854505 0.29462120 0.12426947
0.43671322 0.29506370 0.12368963
0.46424049 0.29648280 0.12167544
0.49239337 0.29819182 0.11880674
0.52162969 0.29922941 0.11631952
0.55306327 0.29903105 0.11744870
0.58695352 0.29796293 0.12121767
0.62276644 0.29579613 0.12538338
0.65683985 0.29452965 0.12954910
0.68905163 0.29376668 0.13200580
0.71970701 0.29370564 0.13394369
0.74863815 0.29336995 0.13582055
0.77439535 0.28940260 0.13717860
0.79301137 0.28369573 0.13743801
0.80254823 0.27676815 0.13861296
0.80811781 0.27092394 0.14062715
0.81298542 0.26932174 0.14268711
0.81345844 0.26733807 0.14483863
0.81258869 0.26306555 0.14697489
0.08935683 0.29471275 0.10385291
0.08752575 0.29681849 0.10254063
0.08569467 0.29880217 0.10189975
0.08424506 0.30115205 0.10168612
0.08868544 0.30411232 0.10193027
0.09605554 0.30771345 0.10287633
0.10238804 0.31201649 0.10449378
0.12861830 0.31697565 0.10807965
0.16812390 0.32274356 0.11309987
0.21460289 0.32837415 0.11873045
0.25882354 0.33162433 0.12423895
0.29858854 0.32803845 0.12904555
0.34114596 0.32770276 0.13371481
0.37802702 0.32677194 0.13337912
0.40837720 0.32750440 0.13055620
0.43735409 0.32849622 0.12822156
0.46601054 0.32935074 0.12574960
0.49394980 0.33101395 0.12643625
0.52256048 0.33224994 0.12942703
0.55310905 0.33231097 0.13267720
0.58692300 0.33185321 0.13598840
0.62146944 0.33142596 0.13763638
0.65407795 0.33154804 0.13815518
0.68635082 0.33160907 0.13958953
0.71760130 0.33211261 0.14103913
0.74787515 0.33002213 0.14244297
0.77552456 0.32596323 0.14346533
0.79517817 0.32161441 0.14314489
0.80613410 0.31903562 0.14370947
0.81190205 0.31781492 0.14547952
0.81696802 0.31430534 0.14737163
0.81791407 0.31027696 0.14929427
0.81702906 0.30608073 0.15126269
0.10817121 0.31949341 0.11761654
0.10624857 0.32153812 0.11630426
0.10446326 0.32358283 0.11563287
0.10293736 0.32584116 0.11532769
0.10336462 0.32867932 0.11546502
0.11255054 0.33212787 0.11624323
0.11938658 0.33632410 0.11769284
0.13504234 0.34149691 0.12069886
0.17041275 0.34769207 0.12602426
0.20982681 0.35454339 0.13163958
0.25279620 0.36076906 0.13556115
0.29066911 0.36180666 0.13624781
0.32785535 0.35825130 0.13415731
0.36743724 0.35721371 0.13260090
0.40540171 0.35802242 0.13224994
0.43714046 0.36078432 0.13405050
0.46765849 0.36279851 0.13801785
0.49674219 0.36392766 0.14232090
0.52510870 0.36464486 0.14622721
0.55466545 0.36472115 0.14749371
0.58605325 0.36432442 0.14651713
0.61861598 0.36444649 0.14547952
0.65049213 0.36574349 0.14608988
0.68261236 0.36589608 0.14708172
0.71570915 0.36374456 0.14798200
0.74674600 0.36160830 0.14880598
0.77528036 0.35907531 0.14943160
0.79302663 0.35706112 0.15022507
0.80335701 0.35315481 0.15152209
0.80933851 0.35068285 0.15301748
0.81437397 0.34874496 0.15326162
0.81583887 0.34605935 0.15324636
0.81489283 0.34369421 0.15323110
0.12544441 0.34618142 0.13174640
0.12332342 0.34821087 0.13028152
0.12126344 0.35017928 0.12942703
0.11938658 0.35242236 0.12899977
0.11787594 0.35512322 0.12884718
0.12533760 0.35831234 0.12916762
0.13250935 0.36223391 0.13014419
0.14200045 0.36704051 0.13197528
0.16772717 0.37280843 0.13475242
0.20160219 0.37915617 0.13641566
0.23823911 0.38504615 0.13559167
0.27985045 0.38939497 0.13360800
0.31689936 0.38855574 0.13255513
0.35715267 0.38941023 0.13636988
0.39783323 0.39205006 0.14428931
0.43567559 0.39407951 0.15126269
0.46790266 0.39591059 0.15588617
0.49742886 0.39688715 0.15756465
0.52732128 0.39687189 0.15664911
0.55698484 0.39645991 0.15536736
0.58750284 0.39641413 0.15417716
0.61887538 0.39638361 0.15400931
0.65006483 0.39603266 0.15445182
0.68187994 0.39548331 0.15468070
0.71429008 0.39438468 0.15448233
0.74488443 0.39218739 0.15390250
0.76969558 0.38889143 0.15429923
0.78646523 0.38597697 0.15452811
0.79938966 0.38277256 0.15449759
0.80560005 0.38095674 0.15445182
0.81068134 0.37958342 0.15448233
0.81220722 0.37824064 0.15443656
0.81199360 0.37485313 0.15445182
0.11706722 0.37340352 0.13376059
0.11486991 0.37544823 0.13232625
0.11255054 0.37741664 0.13134965
0.11038376 0.37953764 0.13066301
0.10835432 0.38220799 0.13032730
0.11009384 0.38527504 0.13037309
0.11941711 0.38893721 0.13101396
0.12745862 0.39334705 0.13223468
0.14801252 0.39855039 0.13373007
0.17965972 0.40415046 0.13488975
0.22478065 0.41008621 0.13687342
0.26933700 0.41680017 0.13891813
0.31451896 0.42365149 0.14587624
0.35172045 0.42545205 0.15339895
0.39035630 0.42767987 0.16061646
0.42783245 0.42835125 0.16446173
0.46414894 0.42746624 0.16333257
0.49668115 0.42749676 0.16023499
0.52776378 0.42778668 0.15742733
0.55988401 0.42758831 0.15527581
0.58991379 0.42728314 0.15478751
0.62023348 0.42668802 0.15497063
0.65075153 0.42609292 0.15480278
0.68158996 0.42504007 0.15458915
0.71119249 0.42151523 0.15446708
0.73878080 0.41864651 0.15471122
0.76412606 0.41548792 0.15503167
0.78205538 0.41263446 0.15487908
0.79526973 0.41058975 0.15324636
0.80346382 0.40958267 0.15210193
0.80889601 0.40827039 0.15204090
0.81150532 0.40561533 0.15237659
0.81095600 0.40283817 0.15286489
0.11291676 0.40311283 0.13839933
0.11099412 0.40512702 0.13704127
0.10931563 0.40709543 0.13617150
0.10778973 0.40918595 0.13568322
0.10678264 0.41173419 0.13565271
0.10635538 0.41470969 0.13597314
0.11779965 0.41824979 0.13687342
0.12726024 0.42243075 0.13836882
0.14908065 0.42757306 0.14154269
0.18913558 0.43381399 0.14769207
0.23016709 0.44081789 0.15461966
0.27325857 0.44878310 0.16021973
0.31398490 0.45691615 0.16244754
0.35144579 0.46198216 0.16479744
0.38309300 0.46207371 0.16540779
0.41680017 0.46189058 0.16215762
0.45471886 0.46158540 0.15854123
0.49213398 0.46002901 0.15637445
0.52603954 0.45926604 0.15411612
0.55735105 0.45915923 0.15324636
0.58918136 0.45879301 0.15347524
0.62076753 0.45818266 0.15384147
0.65134662 0.45575646 0.15439078
0.68084228 0.45165178 0.15478751
0.70878154 0.44771495 0.15509270
0.73575950 0.44429693 0.15519951
0.76069278 0.44122988 0.15474173
0.77952242 0.43900207 0.15230030
0.79392689 0.43707943 0.14935531
0.80483711 0.43607232 0.14822614
0.81054395 0.43450063 0.14828718
0.81367207 0.43170825 0.14885175
0.81290913 0.42905319 0.14929427
0.14923324 0.43653011 0.15898375
0.14734112 0.43849853 0.15761043
0.14551003 0.44046694 0.15671015
0.14377050 0.44248113 0.15617609
0.14242771 0.44484627 0.15600824
0.14146639 0.44759288 0.15617609
0.14813459 0.45099565 0.15684749
0.15930419 0.45493248 0.15814450
0.17224383 0.45960173 0.16029602
0.20495918 0.46552223 0.16435492
0.23938353 0.47219044 0.16858168
0.27518120 0.47920957 0.16961929
0.31216908 0.48664072 0.16630808
0.34862286 0.49353781 0.16333257
0.38355076 0.49781033 0.16122682
0.41519800 0.49851224 0.15799192
0.44769970 0.49549097 0.15280384
0.48535895 0.49442282 0.14955367
0.52204168 0.49259174 0.15019456
0.55585563 0.49152362 0.15126269
0.58750284 0.49091324 0.15231556
0.62024873 0.48804456 0.15362783
0.65165180 0.48331425 0.15458915
0.68139160 0.47908750 0.15509270
0.70948350 0.47533378 0.15500115
0.73621726 0.47158006 0.15371938
0.76169986 0.46802473 0.15121691
0.78153658 0.46536964 0.14805830
0.79624629 0.46311131 0.14633402
0.80869764 0.46167696 0.14602885
0.81461817 0.46048677 0.14602885
0.81820399 0.45888457 0.14615092
0.81719691 0.45709926 0.14625773
0.16360724 0.46897078 0.16928358
0.16150148 0.47093919 0.16774243
0.15942626 0.47260243 0.16668956
0.15744258 0.47461662 0.16592661
0.15558098 0.47687495 0.16539253
0.15402457 0.47957581 0.16502632
0.15478751 0.48284122 0.16502632
0.16681163 0.48674753 0.16523995
0.17627221 0.49123371 0.16598764
0.19497979 0.49657434 0.16728465
0.23277637 0.50299841 0.16836804
0.26758221 0.50983447 0.16900893
0.30360875 0.51667047 0.16351567
0.34097812 0.52330816 0.15825132
0.37836272 0.52884716 0.15513848
0.41432822 0.53238726 0.15216297
0.44861525 0.53316545 0.14831769
0.48001832 0.52927440 0.14413673
0.51544976 0.52750438 0.14608988
0.55049974 0.52442205 0.15106432
0.58493936 0.52167547 0.15335317
0.61829555 0.51635003 0.15423819
0.65072101 0.51145190 0.15446708
0.68201727 0.50717938 0.15365835
0.71152818 0.50350195 0.15211719
0.73942167 0.49985504 0.15024033
0.76490426 0.49607080 0.14735638
0.78580910 0.49283588 0.14560159
0.80273134 0.49121845 0.14576943
0.81585413 0.49063858 0.14662394
0.82206452 0.48963150 0.14671549
0.82639813 0.48883802 0.14665446
0.82551306 0.48810560 0.14670023
0.16546883 0.50284582 0.16910048
0.16339360 0.50484473 0.16758984
0.16127260 0.50647748 0.16647592
0.15913634 0.50843060 0.16551460
0.15718319 0.51073474 0.16469063
0.15551995 0.51334399 0.16412604
0.15408561 0.51639581 0.16365302
0.16464485 0.51999694 0.16339360
0.17509727 0.52411687 0.16356145
0.18739605 0.52883190 0.16403449
0.21667811 0.53461510 0.16394293
0.25333029 0.54050505 0.16168460
0.28751048 0.54682231 0.15753414
0.32660410 0.55301750 0.15342946
0.36853591 0.55912107 0.14987411
0.40814832 0.56444645 0.14787517
0.44522774 0.56763560 0.14779888
0.47905698 0.56757456 0.14952315
0.50925457 0.56241703 0.15057603
0.54303807 0.55848020 0.15228504
0.57885098 0.55266649 0.15385672
0.61524379 0.54569316 0.15320058
0.64902723 0.54081023 0.15112536
0.68154418 0.53615624 0.14906539
0.71253526 0.53202105 0.14741741
0.74183261 0.52877086 0.14647135
0.76975662 0.52645153 0.14699017
0.79224843 0.52478826 0.14834821
0.80921644 0.52320135 0.14871442
0.82462806 0.52204168 0.14877546
0.83118945 0.52111083 0.14880598
0.83581293 0.52004272 0.14877546
0.83472955 0.51947814 0.14877546
0.16409552 0.53684288 0.16092165
0.16188297 0.53870451 0.16087587
0.15980774 0.54062712 0.16087587
0.15768673 0.54248875 0.16061646
0.15562676 0.54456395 0.16021973
0.15391776 0.54706645 0.15994507
0.15231556 0.54982835 0.15927367
0.15677120 0.55306327 0.15857175
0.16966507 0.55689329 0.15777829
0.18069734 0.56115055 0.15680172
0.20502022 0.56630808 0.15551995
0.23891051 0.57196915 0.15420768
0.27808040 0.57758451 0.15317006
0.31549555 0.58336765 0.15239185
0.35819027 0.58858627 0.15252918
0.39867246 0.59345388 0.15356679
0.43636224 0.59737545 0.15521477
0.47327381 0.59993899 0.15606928
0.50803387 0.59998477 0.15573357
0.53983366 0.59536123 0.15379567
0.57334250 0.58597696 0.15155260
0.60990310 0.57767606 0.14959945
0.64612800 0.57077897 0.14746319
0.68046081 0.56650645 0.14666972
0.71331352 0.56357670 0.14700542
0.74468607 0.56150150 0.14752422
0.77346456 0.55973142 0.15034714
0.79874873 0.55803770 0.15297170
0.81702906 0.55732054 0.15475699
0.83222705 0.55782408 0.15808347
0.83797973 0.55666441 0.15838864
0.84266424 0.55576408 0.15869382
0.84168762 0.55539787 0.15922789
0.16588083 0.57059586 0.15558098
0.16371405 0.57248801 0.15558098
0.16162357 0.57425803 0.15555046
0.15965514 0.57618070 0.15553521
0.15762569 0.57816434 0.15545891
0.15594721 0.58049899 0.15545891
0.15497063 0.58326083 0.15561150
0.15445182 0.58632791 0.15582514
0.16966507 0.58979172 0.15602350
0.18287937 0.59385061 0.15631342
0.20805676 0.59813839 0.15747310
0.24054322 0.60267031 0.15863279
0.27859923 0.60746169 0.15910582
0.31567866 0.61231405 0.15976197
0.35162890 0.61738002 0.16092165
0.39012742 0.62207979 0.16119631
0.42798504 0.62647438 0.16052490
0.46540016 0.63016707 0.15892272
0.50312048 0.63302052 0.15735103
0.53940642 0.63379872 0.15501641
0.57187760 0.62339211 0.15136950
0.60578316 0.61226827 0.14898910
0.64367133 0.60651559 0.14905013
0.68122375 0.60202944 0.14929427
0.71535820 0.59917599 0.14993516
0.74705118 0.59661251 0.15150683
0.77776760 0.59511709 0.15637445
0.80540168 0.59578854 0.16400397
0.82598609 0.59742123 0.17068742
0.84211493 0.59851986 0.17454796
0.84782177 0.59726864 0.17473106
0.85227740 0.59647518 0.17517357
0.85166705 0.59606320 0.17576867
0.18522927 0.60273135 0.16495003
0.18323034 0.60469979 0.16499580
0.18123141 0.60651559 0.16501106
0.17932403 0.60834670 0.16507210
0.17749295 0.61040664 0.16513313
0.17592126 0.61258870 0.16523995
0.17462425 0.61515218 0.16530098
0.17380026 0.61820400 0.16533150
0.18542764 0.62153047 0.16554514
0.19891661 0.62523842 0.16568246
0.22038606 0.62906843 0.16614023
0.25082779 0.63282216 0.16658275
0.28232244 0.63703364 0.16737621
0.31584650 0.64148927 0.16687267
0.34854656 0.64628059 0.16549934
0.38161287 0.65110248 0.16382086
0.41971466 0.65534449 0.16189823
0.45717555 0.65928131 0.15988404
0.49501792 0.66338599 0.15832761
0.53444725 0.66720074 0.15779355
0.57450217 0.66486609 0.15729000
0.60917068 0.65476465 0.15550469
0.64386970 0.64530402 0.15432975
0.68081176 0.64011598 0.15573357
0.71815062 0.63758296 0.16171512
0.75396353 0.63828486 0.17018387
0.78637367 0.63880372 0.17749295
0.81496912 0.63886476 0.18301670
0.83540094 0.63938355 0.18644999
0.85215533 0.64036012 0.18835737
