data/textures/zblade.cube
TITLE "brightershadowlandscape5sheepnightlumi.cube"
# Created by Imaging - supersinfulsilicon software
LUT_3D_SIZE 5
0.00000000 0.00114443 0.00967422
0.25760281 0.01876860 0.03747616
0.48328373 0.04020752 0.06173800
0.72642100 0.08505379 0.09596399
0.78791487 0.12491035 0.15626764
0.06999313 0.22388037 0.08026245
0.21518272 0.23718624 0.08400092
0.46109712 0.22568093 0.10363927
0.71677727 0.20872816 0.12133974
0.79740596 0.19894713 0.14840925
0.14923324 0.43653011 0.15898375
0.17224383 0.45960173 0.16029602
0.44769970 0.49549097 0.15280384
0.70948350 0.47533378 0.15500115
0.81719691 0.45709926 0.14625773
0.20535591 0.69697106 0.18722820
0.19082932 0.71488518 0.18622111
0.40549326 0.74584574 0.17137407
0.75913632 0.78559548 0.22397192
0.91058213 0.76469064 0.21327534
0.25708401 0.87240404 0.28029299
0.27240404 0.88833445 0.28274968
0.47080186 0.93412679 0.31433585
0.77537191 0.97691309 0.32376593
0.96821547 0.97569239 0.27762264
0.03967346 0.01751736 0.26025787
0.27890441 0.01971466 0.26230258
0.52429998 0.03176928 0.21043716
0.72629893 0.10592813 0.25006485
0.78730452 0.14065766 0.29365987
0.10511940 0.21521324 0.23889525
0.26982528 0.26668194 0.25716031
0.48749524 0.20837720 0.23459220
0.75107956 0.19424735 0.27676815
0.82510108 0.20157167 0.32118714
0.19302663 0.43044174 0.25412375
0.19029526 0.45571068 0.21649501
0.46108186 0.47837034 0.19781797
0.74375522 0.46730754 0.20166323
0.84507513 0.44357976 0.20181583
0.23620966 0.68943310 0.26338598
0.21002518 0.71113145 0.25438315
0.40628672 0.73087662 0.23270008
0.77923244 0.78684670 0.23462272
0.93888760 0.75898373 0.21315327
0.33914703 0.86832988 0.32285038
0.32248417 0.88719004 0.32001221
0.48612192 0.93304342 0.36305791
0.78605324 0.97848475 0.37265584
0.99354541 0.97764552 0.33591211
0.07135119 0.02784771 0.46753642
0.24615854 0.01684596 0.49829862
0.55425346 0.02401770 0.52642101
0.83277637 0.03805600 0.54032195
0.87351799 0.09384298 0.44293889
0.11134508 0.19174486 0.54007781
0.21731900 0.18702984 0.50234228
0.54081023 0.17410544 0.50548559
0.78751814 0.13757534 0.44878310
0.81940949 0.23147936 0.52600902
0.21683070 0.43335623 0.46839094
0.21841764 0.45560387 0.45645839
0.53646141 0.52014953 0.49434653
0.77012283 0.45732814 0.47653925
0.87017626 0.45317769 0.49173725
0.25561914 0.68216985 0.42249179
0.27377737 0.70283055 0.42375830
0.39961854 0.72062254 0.41882962
0.79731441 0.80695814 0.44472420
0.96971083 0.79638362 0.47127488
0.38423744 0.86227208 0.43952087
0.40305179 0.88711375 0.44792858
0.49436179 0.93087661 0.49704736
0.79084456 0.98820478 0.52909130
0.99928284 0.98402381 0.48912793
0.10717937 0.03645380 0.70353246
0.21542688 0.01834134 0.75104904
0.53015947 0.03161670 0.74177158
0.81626612 0.05038529 0.77148086
0.91538870 0.08227664 0.79362172
0.14634928 0.17340353 0.75495535
0.21887541 0.16784924 0.74882126
0.51331347 0.15568779 0.74818039
0.82621503 0.11987488 0.76331729
0.91966122 0.15930419 0.78684670
0.20907912 0.43611810 0.76505685
0.18812849 0.45297933 0.77082473
0.47351795 0.42551309 0.75912106
0.81617457 0.42215610 0.77454793
0.87806517 0.42374304 0.69874114
0.22166781 0.68029296 0.65885407
0.26135653 0.70069426 0.66509497
0.41171893 0.72028685 0.68604565
0.81420612 0.80387580 0.76072329
0.97381550 0.82182038 0.80724806
0.38237584 0.84267950 0.62529945
0.39650568 0.86254674 0.63025862
0.44267949 0.88392460 0.64570075
0.79148549 0.98467994 0.76214236
1.00000000 0.99201953 0.72961015
0.15042344 0.07333486 0.78739607
0.22250706 0.05868620 0.85114825
0.46344700 0.05667201 0.90244907
0.77100784 0.05792325 0.91001755
0.89448386 0.04592966 0.91306937
0.14511330 0.17553979 0.92402536
0.20865187 0.17329670 0.92361331
0.46823835 0.17325093 0.92375064
0.77146560 0.13183795 0.91284049
0.89359885 0.15686275 0.91473258
0.22465858 0.43877319 0.91499197
0.25690091 0.45403218 0.91471732
0.48291752 0.42520791 0.90745401
0.78968489 0.43125048 0.92291141
0.89832914 0.42537576 0.91697568
0.28148317 0.67316699 0.90908676
0.29587242 0.69440758 0.90955979
0.42320898 0.71515983 0.90872055
0.84007019 0.78239107 0.97370869
0.98094147 0.79107350 0.99055469
0.40633249 0.85661095 0.86744487
0.41422141 0.87534904 0.87280077
0.43826962 0.88896012 0.88764781
0.78739607 0.98005646 0.99056995
0.99681085 1.00000000 0.99996948
