data/textures/zblade.cube
TITLE "brightershadowlandscape5sheepnightlumi.cube"
# Created by Imaging - supersinfulsilicon software
LUT_3D_SIZE 9
0.00000000 0.00114443 0.00967422
0.13009842 0.01266499 0.03103685
0.25760281 0.01876860 0.03747616
0.36963454 0.03140307 0.05130083
0.48328373 0.04020752 0.06173800
0.60161746 0.08007935 0.08587778
0.72642100 0.08505379 0.09596399
0.77735561 0.11564813 0.12928969
0.78791487 0.12491035 0.15626764
0.02896162 0.11772335 0.03828489
0.08836500 0.12504768 0.04794385
0.23993286 0.08844129 0.04483101
0.35857177 0.08094911 0.05937285
0.47423515 0.07205310 0.07525750
0.59491873 0.10156405 0.09228656
0.72138554 0.10313573 0.10684367
0.77732509 0.13655299 0.13408102
0.78794539 0.14573891 0.16168460
0.06999313 0.22388037 0.08026245
0.07574578 0.23399711 0.07975890
0.21518272 0.23718624 0.08400092
0.34373999 0.22343786 0.09021134
0.46109712 0.22568093 0.10363927
0.58799118 0.22192721 0.10164034
0.71677727 0.20872816 0.12133974
0.78867781 0.19261463 0.12991531
0.79740596 0.19894713 0.14840925
0.10817121 0.31949341 0.11761654
0.10336462 0.32867932 0.11546502
0.17041275 0.34769207 0.12602426
0.32785535 0.35825130 0.13415731
0.46765849 0.36279851 0.13801785
0.58605325 0.36432442 0.14651713
0.71570915 0.36374456 0.14798200
0.80335701 0.35315481 0.15152209
0.81489283 0.34369421 0.15323110
0.14923324 0.43653011 0.15898375
0.14242771 0.44484627 0.15600824
0.17224383 0.45960173 0.16029602
0.31216908 0.48664072 0.16630808
0.44769970 0.49549097 0.15280384
0.58750284 0.49091324 0.15231556
0.70948350 0.47533378 0.15500115
0.79624629 0.46311131 0.14633402
0.81719691 0.45709926 0.14625773
0.16588083 0.57059586 0.15558098
0.15762569 0.57816434 0.15545891
0.16966507 0.58979172 0.15602350
0.27859923 0.60746169 0.15910582
0.42798504 0.62647438 0.16052490
0.57187760 0.62339211 0.15136950
0.71535820 0.59917599 0.14993516
0.82598609 0.59742123 0.17068742
0.85166705 0.59606320 0.17576867
0.20535591 0.69697106 0.18722820
0.19708553 0.70466161 0.18695353
0.19082932 0.71488518 0.18622111
0.26556802 0.72816050 0.18097199
0.40549326 0.74584574 0.17137407
0.57251853 0.77216756 0.18609904
0.75913632 0.78559548 0.22397192
0.88447392 0.77949190 0.23231861
0.91058213 0.76469064 0.21327534
0.25641260 0.81087971 0.24058899
0.24859999 0.81892121 0.24036011
0.24226749 0.82856488 0.23820859
0.31409171 0.84437323 0.23547722
0.43115893 0.87156481 0.23582818
0.59174484 0.90608072 0.21370260
0.76539254 0.92195010 0.18791485
0.93566799 0.94337380 0.27357900
0.96780348 0.92199588 0.27621880
0.25708401 0.87240404 0.28029299
0.24921034 0.88007933 0.28107119
0.27240404 0.88833445 0.28274968
0.34753948 0.90626383 0.29596400
0.47080186 0.93412679 0.31433585
0.61802089 0.96330208 0.32349128
0.77537191 0.97691309 0.32376593
0.90574503 0.97351032 0.29974821
0.96821547 0.97569239 0.27762264
0.04083314 0.01409934 0.15307851
0.13536279 0.01162737 0.14354162
0.28204775 0.02407874 0.10807965
0.36998549 0.03903258 0.10479897
0.47980469 0.04954604 0.12220950
0.60242617 0.09188983 0.14459449
0.72675669 0.09439231 0.14795148
0.77779812 0.11990540 0.17805752
0.78776228 0.12875563 0.19777219
0.03845274 0.11554132 0.13057145
0.12495613 0.13556115 0.13882658
0.25873196 0.07421988 0.09721523
0.36420232 0.08552682 0.12298772
0.48242924 0.07037461 0.13260090
0.60718697 0.10864423 0.16054016
0.73012894 0.10840009 0.16191348
0.78190279 0.13696498 0.19331655
0.78831160 0.14602885 0.21242085
0.08458076 0.21959259 0.11464103
0.08307011 0.23236439 0.09726100
0.21783780 0.22803083 0.08912795
0.35001144 0.21260396 0.09361410
0.47391471 0.21318379 0.12227054
0.60656136 0.21057451 0.13279927
0.73566794 0.20035096 0.16418707
0.80386055 0.18600747 0.17810330
0.81203938 0.19378957 0.20221256
0.12376592 0.31653315 0.14218357
0.11459526 0.32770276 0.12497139
0.17016861 0.34081024 0.12489510
0.33298236 0.34924850 0.13191424
0.47498283 0.35577935 0.14151217
0.60305178 0.36083010 0.14976729
0.73867399 0.35837337 0.14532693
0.82020295 0.34723431 0.15567254
0.83305103 0.33464560 0.15600824
0.16504158 0.43411916 0.18019380
0.15497063 0.44399175 0.16162357
0.17822537 0.45427635 0.15736629
0.31383231 0.47910276 0.16708629
0.45960173 0.49361411 0.16372931
0.60419625 0.49222553 0.15236133
0.72707713 0.47315174 0.15487908
0.81272602 0.46126497 0.14633402
0.83141834 0.45343709 0.14666972
0.17911039 0.56812388 0.18933395
0.16919203 0.57727933 0.18115512
0.17697413 0.58622110 0.17608911
0.28162050 0.60129702 0.17428854
0.43495843 0.62227815 0.16049439
0.58332187 0.62378883 0.15161364
0.73157853 0.59848934 0.14982833
0.84277105 0.59549856 0.17047380
0.86524761 0.59272146 0.17445640
0.21855497 0.69462121 0.21789883
0.20883498 0.70362401 0.20656139
0.20059510 0.71195543 0.20376898
0.26964217 0.72248417 0.19430839
0.40900281 0.73955899 0.17291524
0.57969022 0.77222860 0.18583962
0.77050430 0.78599221 0.22366674
0.89988554 0.77892727 0.23189135
0.92512399 0.76311892 0.21315327
0.27170214 0.80970472 0.26535439
0.26266879 0.81873810 0.25990692
0.25522241 0.82734418 0.26013580
0.32063782 0.84068054 0.26143283
0.43549249 0.86646831 0.26242465
0.59623104 0.90627909 0.22845808
0.77192342 0.92063785 0.18744183
0.94779891 0.94335848 0.27277029
0.98262000 0.92167544 0.27603570
0.27130541 0.87092394 0.29181352
0.26251620 0.87937742 0.29048601
0.28995192 0.88709849 0.29207295
0.35814449 0.90351719 0.30626383
0.47675288 0.93083084 0.32770276
0.62275118 0.96400398 0.33550012
0.78248262 0.97734034 0.33658350
0.91653317 0.97463953 0.30537879
0.98184174 0.97596705 0.28020141
0.03967346 0.01751736 0.26025787
0.11224537 0.01480125 0.25796902
0.27890441 0.01971466 0.26230258
0.41759366 0.02960250 0.25992218
0.52429998 0.03176928 0.21043716
0.60547799 0.08345159 0.21152057
0.72629893 0.10592813 0.25006485
0.77897304 0.13157855 0.27734798
0.78730452 0.14065766 0.29365987
0.04968338 0.09085222 0.29005876
0.10067903 0.09448387 0.28026244
0.27917907 0.06594949 0.26294348
0.40552378 0.06370641 0.21881437
0.48795301 0.07940795 0.24576181
0.61144429 0.11120775 0.26703289
0.73627830 0.12332342 0.28192568
0.78965437 0.14843976 0.30508888
0.79505610 0.15744258 0.31717402
0.10511940 0.21521324 0.23889525
0.10638590 0.22665751 0.22432289
0.26982528 0.26668194 0.25716031
0.38248265 0.21385519 0.22992294
0.48749524 0.20837720 0.23459220
0.61881435 0.19629206 0.25403219
0.75107956 0.19424735 0.27676815
0.81889069 0.19278248 0.30341038
0.82510108 0.20157167 0.32118714
0.14892805 0.31815061 0.22363622
0.14529641 0.32932022 0.20968948
0.19296560 0.34705120 0.19993897
0.35231555 0.35417715 0.19214161
0.48593882 0.34866866 0.20523384
0.61295491 0.34293127 0.22262913
0.75713742 0.34027618 0.23709469
0.83561456 0.32986954 0.25275043
0.84776074 0.31296253 0.26572061
0.19302663 0.43044174 0.25412375
0.17436485 0.44347295 0.23338674
0.19029526 0.45571068 0.21649501
0.30878156 0.47220570 0.21124589
0.46108186 0.47837034 0.19781797
0.60834670 0.47861448 0.20419623
0.74375522 0.46730754 0.20166323
0.83204395 0.45178911 0.18991378
0.84507513 0.44357976 0.20181583
0.20035096 0.56205082 0.24548714
0.18313879 0.57460898 0.24512093
0.17721827 0.58510721 0.22955672
0.27643245 0.59429312 0.22619975
0.42964828 0.61222249 0.21695277
0.59134811 0.62455177 0.18310827
0.75069809 0.59641415 0.16940565
0.86129546 0.59098190 0.17581445
0.87789732 0.58277255 0.17523460
0.23620966 0.68943310 0.26338598
0.22061494 0.70099944 0.26294348
0.21002518 0.71113145 0.25438315
0.26807049 0.71915770 0.24997330
0.40628672 0.73087662 0.23270008
0.58376437 0.77174032 0.22532998
0.77923244 0.78684670 0.23462272
0.91737241 0.77926296 0.23727779
0.93888760 0.75898373 0.21315327
0.29239339 0.80588996 0.30484474
0.27931640 0.81692225 0.30521095
0.27054247 0.82725263 0.29890898
0.32730603 0.83848327 0.30028230
0.43790340 0.86364537 0.30598918
0.59369802 0.90070957 0.29465172
0.77540243 0.92097354 0.25091934
0.95768672 0.94277865 0.27658504
0.99786371 0.92625314 0.29089800
0.33914703 0.86832988 0.32285038
0.32796216 0.87843138 0.32254520
0.32248417 0.88719004 0.32001221
0.37531090 0.90363926 0.33533227
0.48612192 0.93304342 0.36305791
0.62659645 0.96174562 0.37174028
0.78605324 0.97848475 0.37265584
0.92581064 0.97686732 0.36552987
0.99354541 0.97764552 0.33591211
0.05117876 0.02063020 0.35934997
0.10116731 0.01611353 0.37100786
0.25944915 0.01779202 0.37552452
0.41788357 0.03012131 0.38730448
0.55667967 0.01791409 0.40070191
0.70218968 0.04708934 0.38602275
0.78797591 0.06614786 0.32697031
0.78031588 0.10618753 0.33466086
0.78764021 0.12420844 0.34412146
0.07061876 0.06787213 0.40317386
0.10101473 0.06688029 0.39642939
0.25580224 0.05627527 0.38596171
0.41643396 0.05268940 0.38908979
0.55400932 0.03768978 0.38944075
0.65796900 0.07235828 0.32825208
0.72291142 0.10232700 0.32410163
0.78461891 0.14549477 0.39456779
0.79598689 0.15857175 0.42456701
0.11258107 0.20523384 0.40418097
0.10214389 0.21425192 0.39554438
0.23683529 0.22082856 0.38919660
0.41062027 0.20248722 0.37906462
0.52770275 0.16989395 0.33458456
0.63500422 0.17297627 0.36432442
0.75748837 0.19693294 0.40012208
0.82536048 0.18896773 0.42514688
0.83117419 0.20144960 0.44278631
0.16192874 0.31482413 0.35843444
0.15162890 0.32590219 0.34268710
0.19119555 0.34004730 0.33524072
0.40524909 0.39209583 0.37589073
0.51364917 0.34244296 0.34865341
0.62700850 0.32581064 0.35024032
0.76258487 0.32376593 0.36971083
0.84589916 0.32355231 0.39313343
0.85593957 0.32144657 0.40529490
0.21014725 0.43564507 0.34590676
0.19839780 0.44589913 0.33234149
0.21603723 0.45760280 0.31860837
0.32495612 0.48160526 0.31784543
0.48328373 0.48261234 0.30795759
0.62215608 0.47309071 0.31741819
0.75385672 0.46291295 0.33305869
0.84658581 0.44534981 0.34114596
0.86128020 0.43805599 0.34593728
0.21298543 0.55976194 0.33414206
0.20126650 0.56998551 0.33408102
0.20349431 0.58356601 0.32852674
0.27771419 0.59566641 0.31326771
0.42275119 0.60285342 0.29550621
0.59212637 0.61242086 0.28049135
0.75344473 0.59501028 0.27356374
0.88029295 0.59114975 0.28508431
0.89556724 0.57978177 0.28639659
0.25844204 0.68393987 0.33228046
0.23959716 0.69626915 0.33234149
0.23845273 0.70949876 0.33255512
0.27052721 0.71976805 0.32959488
0.39871824 0.72205693 0.31752500
0.57888150 0.76182193 0.31252003
0.79298085 0.79655147 0.32628366
0.94308382 0.79539180 0.34566262
0.96229494 0.77586025 0.32471198
0.31284046 0.79920655 0.35007247
0.30440223 0.81300068 0.35126269
0.33118182 0.82589453 0.35536736
0.34322119 0.83765924 0.35643548
0.44074160 0.86057830 0.36992446
0.59232473 0.89271384 0.37303731
0.78513771 0.92919815 0.35931945
0.98182648 0.96380562 0.38222325
1.00000000 0.94847029 0.39472038
0.36630809 0.86448461 0.36690319
0.36990920 0.87719542 0.36963454
0.37409019 0.88844126 0.37851530
0.39441520 0.90293735 0.39056993
0.49228656 0.93582058 0.42369726
0.62705427 0.95750362 0.43006027
0.78838789 0.98162812 0.43421072
0.93388265 0.98065156 0.42700848
0.99609369 0.98037690 0.39851987
0.07135119 0.02784771 0.46753642
0.10165560 0.01977569 0.48877698
0.24615854 0.01684596 0.49829862
0.40799573 0.01943999 0.50348669
0.55425346 0.02401770 0.52642101
0.70321202 0.04533456 0.54198521
0.83277637 0.03805600 0.54032195
0.90646219 0.05256733 0.49494162
0.87351799 0.09384298 0.44293889
0.10058747 0.05989166 0.51602960
0.12028687 0.05980011 0.51392388
0.24626535 0.05709926 0.51117724
0.40495917 0.04812695 0.50342566
0.54866862 0.03765927 0.51575494
0.69349205 0.04861524 0.52668041
0.82935834 0.04888991 0.50925457
0.86028838 0.08538949 0.43808651
0.79107350 0.14920272 0.43947509
0.11134508 0.19174486 0.54007781
0.10559243 0.19717708 0.52304876
0.21731900 0.18702984 0.50234228
0.38957807 0.18335241 0.49823758
0.54081023 0.17410544 0.50548559
0.68912792 0.13237202 0.50603497
0.78751814 0.13757534 0.44878310
0.78654152 0.16133364 0.44322881
0.81940949 0.23147936 0.52600902
0.17010757 0.31285572 0.51616693
0.15922789 0.32288089 0.50183868
0.19916075 0.33304343 0.50113678
0.38384071 0.34863812 0.51010913
0.53769743 0.32849622 0.49784085
0.66210419 0.29393452 0.44954604
0.77622646 0.31012437 0.48282596
0.84774548 0.34872970 0.52707714
0.86341649 0.35226977 0.54380101
0.21683070 0.43335623 0.46839094
0.20465401 0.44379339 0.46674296
0.21841764 0.45560387 0.45645839
0.32581064 0.47574580 0.46097505
0.53646141 0.52014953 0.49434653
0.64852369 0.46361485 0.46231785
0.77012283 0.45732814 0.47653925
0.85224688 0.46305028 0.48740369
0.87017626 0.45317769 0.49173725
0.22607768 0.56125736 0.43030441
0.21521324 0.57137406 0.43163195
0.23129626 0.58257419 0.43511102
0.29529259 0.59354544 0.43096057
0.44469368 0.61347371 0.42954147
0.61652553 0.61817348 0.41669336
0.76435494 0.60640877 0.43306631
0.90293735 0.62174410 0.47293812
0.93638515 0.61936373 0.49367514
0.25561914 0.68216985 0.42249179
0.25513086 0.69221026 0.42276645
0.27377737 0.70283055 0.42375830
0.28931105 0.71613640 0.42652017
0.39961854 0.72062254 0.41882962
0.58078891 0.75841916 0.43280691
0.79731441 0.80695814 0.44472420
0.94830245 0.80888075 0.47296864
0.96971083 0.79638362 0.47127488
0.31738764 0.79603267 0.43219653
0.33586633 0.80659187 0.43299001
0.36021972 0.81959260 0.43567559
0.37042803 0.83315784 0.44112307
0.44861525 0.85481042 0.45648891
0.59536123 0.88746470 0.47675288
0.82256812 0.96670479 0.51902038
0.98013276 0.96639961 0.49948883
1.00000000 0.95335317 0.50107574
0.38423744 0.86227208 0.43952087
0.38883039 0.87397575 0.44173342
0.40305179 0.88711375 0.44792858
0.41489279 0.89921415 0.45972380
0.49436179 0.93087661 0.49704736
0.62449074 0.95146108 0.51244372
0.79084456 0.98820478 0.52909130
0.93742275 0.98673993 0.51960021
0.99928284 0.98402381 0.48912793
0.09091325 0.03170825 0.57895780
0.11882200 0.02107271 0.60267031
0.23926146 0.01803616 0.62726790
0.39887083 0.01547265 0.63257802
0.54828715 0.02914473 0.62351418
0.70844585 0.04286259 0.64219117
0.82232398 0.03785763 0.66373694
0.89173722 0.05392538 0.67000842
0.91444266 0.07885863 0.67237353
0.11267262 0.05810636 0.63045698
0.13934539 0.05873198 0.63172352
0.24203861 0.04950027 0.63517207
0.39259937 0.04336614 0.62710005
0.53751433 0.04109254 0.62130159
0.69472802 0.04336614 0.64213014
0.82249182 0.04141299 0.65929657
0.89604026 0.05319295 0.66483557
0.91444266 0.10397498 0.61971468
0.13177691 0.18254368 0.64487678
0.13783474 0.18594643 0.64249635
0.20993362 0.17871366 0.63236439
0.37888151 0.17151141 0.62613869
0.53293657 0.17013809 0.62366676
0.68268865 0.13322651 0.63724726
0.82627606 0.12365911 0.64904249
0.90908676 0.13449302 0.63251698
0.88639659 0.17360190 0.56177616
0.17615014 0.31529716 0.65505457
0.16498055 0.32419318 0.65610743
0.18747234 0.32541391 0.64652479
0.35880065 0.31268787 0.62911421
0.51496148 0.30524147 0.62154573
0.67045093 0.28502327 0.62418556
0.82148468 0.26764324 0.62009615
0.87159532 0.27396047 0.56551462
0.81330585 0.30215916 0.55974668
0.22201876 0.43515679 0.61478597
0.20991836 0.44484627 0.61676967
0.20656139 0.45365071 0.62249178
0.32870984 0.45902190 0.62323952
0.50722516 0.46941328 0.62623024
0.67699701 0.45780116 0.62253755
0.79568172 0.43083850 0.57679105
0.84052795 0.45420006 0.60935378
0.87226671 0.47974366 0.63703364
0.23161669 0.55863279 0.55393302
0.22763409 0.56835276 0.55555046
0.23489739 0.57831693 0.56150150
0.28963149 0.58850998 0.56823069
0.44476998 0.60527962 0.56935990
0.67718011 0.66428626 0.61988252
0.82264441 0.63892579 0.62269014
0.90962082 0.64908826 0.64644843
0.94166476 0.66001374 0.65560389
0.22853437 0.67920959 0.51538873
0.22891584 0.68921947 0.51636529
0.26552224 0.69977874 0.51944762
0.28072023 0.71021593 0.52571911
0.41370261 0.72382694 0.54039824
0.60883498 0.77383077 0.57766080
0.80076295 0.80198365 0.58768594
0.93824673 0.80791944 0.61612880
0.98063630 0.80405891 0.63257802
0.32484931 0.78973067 0.51458001
0.33247882 0.79987794 0.51482415
0.35246813 0.81014723 0.51630425
0.37662318 0.82078278 0.52027160
0.44629586 0.84243536 0.53958952
0.60578316 0.89140153 0.59050888
0.82139313 0.96763563 0.65110248
0.98150605 0.96949720 0.62464333
1.00000000 0.95794612 0.62659645
0.38190281 0.85722131 0.52228582
0.38570228 0.86700237 0.52309453
0.39697871 0.87669182 0.52579540
0.41397727 0.88819712 0.53138018
0.47513542 0.91013962 0.55835813
0.62317848 0.94305331 0.60154116
0.79182118 0.98663312 0.64020753
0.93763638 0.98999006 0.63340199
1.00000000 0.98721296 0.60033572
0.10717937 0.03645380 0.70353246
0.12814526 0.02554360 0.73394370
0.21542688 0.01834134 0.75104904
0.37314412 0.01745632 0.74869919
0.53015947 0.03161670 0.74177158
0.68487066 0.04043641 0.73958951
0.81626612 0.05038529 0.77148086
0.89341575 0.05230793 0.78153658
0.91538870 0.08227664 0.79362172
0.12588693 0.06439307 0.74622720
0.14654765 0.06485084 0.74866867
0.21953155 0.05142291 0.74845505
0.36725414 0.03566033 0.74396884
0.51885253 0.04721141 0.73994046
0.67920959 0.04177920 0.73752958
0.81554896 0.06369115 0.76539254
0.89396507 0.05253681 0.77892727
0.91544974 0.09378195 0.78989851
0.14634928 0.17340353 0.75495535
0.15559624 0.17296101 0.75327688
0.21887541 0.16784924 0.74882126
0.36450753 0.16394293 0.74921799
0.51331347 0.15568779 0.74818039
0.66341650 0.12578012 0.73981839
0.82621503 0.11987488 0.76331729
0.90165561 0.12362859 0.77952242
0.91966122 0.15930419 0.78684670
0.18233006 0.31061265 0.77183187
0.17389181 0.31708246 0.76960403
0.20216678 0.31549555 0.76748300
0.33536279 0.30280003 0.76421762
0.49228656 0.29071489 0.75049973
0.64811170 0.27385366 0.74045932
0.80852979 0.26028839 0.75820553
0.89581138 0.26521707 0.76484323
0.90931565 0.28224614 0.75611508
0.20907912 0.43611810 0.76505685
0.19745174 0.44568551 0.76603341
0.18812849 0.45297933 0.77082473
0.31714350 0.44457161 0.77259481
0.47351795 0.42551309 0.75912106
0.64765394 0.42702374 0.75956357
0.81617457 0.42215610 0.77454793
0.89596397 0.41022354 0.76157779
0.87806517 0.42374304 0.69874114
0.22085908 0.55902952 0.72239262
0.22125582 0.56849015 0.72330815
0.22327001 0.57732511 0.72709239
0.29262227 0.58202487 0.73670560
0.45494774 0.58600748 0.75101852
0.65793848 0.62189668 0.77967501
0.83909363 0.62734419 0.78677040
0.92967117 0.62438393 0.75483328
0.93133438 0.64306098 0.79203480
0.22166781 0.68029296 0.65885407
0.22256809 0.69031817 0.66034943
0.26135653 0.70069426 0.66509497
0.29954985 0.71047533 0.67322803
0.41171893 0.72028685 0.68604565
0.60901809 0.76807815 0.72689402
0.81420612 0.80387580 0.76072329
0.94316012 0.80811781 0.79093611
0.97381550 0.82182038 0.80724806
0.34543374 0.79063094 0.62748152
0.35245287 0.80111390 0.62885481
0.37145036 0.81220722 0.63306630
0.39580378 0.82410926 0.64049745
0.44872206 0.84190130 0.65763330
0.61829555 0.89979398 0.72066832
0.81144428 0.95217824 0.78425270
0.95555049 0.96214235 0.76571298
1.00000000 0.94743270 0.76853591
0.38237584 0.84267950 0.62529945
0.38614482 0.85261309 0.62659645
0.39650568 0.86254674 0.63025862
0.41110855 0.87252611 0.63602656
0.44267949 0.88392460 0.64570075
0.61350423 0.93353170 0.69956511
0.79148549 0.98467994 0.76214236
0.92237735 0.99487299 0.76617074
1.00000000 0.99201953 0.72961015
0.11515984 0.04898146 0.76871902
0.13269246 0.03878843 0.78611428
0.19870298 0.03434806 0.82429236
0.34253451 0.02301060 0.84556341
0.49961090 0.03746090 0.85249102
0.65398639 0.04333562 0.85267413
0.78858626 0.06097505 0.84660107
0.87655449 0.04908827 0.85737389
0.89745939 0.04513619 0.86468297
0.16430914 0.07602045 0.82523841
0.17737088 0.07772946 0.83131152
0.21481651 0.05923552 0.84177917
0.33904022 0.04837110 0.85203326
0.49108109 0.04992752 0.85081255
0.64650953 0.04794385 0.85288775
0.78992903 0.06616312 0.84238958
0.87974364 0.06092928 0.85880828
0.90080112 0.08400092 0.86449987
0.14747845 0.16910048 0.86210424
0.15646601 0.16836804 0.86120391
0.21484703 0.17294575 0.85810637
0.33557642 0.16217288 0.85461205
0.48352790 0.15443656 0.86088347
0.64194703 0.13194476 0.84791332
0.79607844 0.12135500 0.84751660
0.88886857 0.10592813 0.86190587
0.90592813 0.15689327 0.86549175
0.18806745 0.30591288 0.87190050
0.18049897 0.31189442 0.87054247
0.21042190 0.30850691 0.87460136
0.31746396 0.29852751 0.87333488
0.47644770 0.28155947 0.85506982
0.62546730 0.26910812 0.84957653
0.77978182 0.24934767 0.84811169
0.87647820 0.25741971 0.85384911
0.89237809 0.28123903 0.85636681
0.19359121 0.43579766 0.87162584
0.19208057 0.44425115 0.87129015
0.18585488 0.44879836 0.87025255
0.32237735 0.43665218 0.86640728
0.46184480 0.41606775 0.85926604
0.61887538 0.41355002 0.85954070
0.80115968 0.42053863 0.87011522
0.89640647 0.41216144 0.87190050
0.90078586 0.41858548 0.86634624
0.19903868 0.55861753 0.86057830
0.19942015 0.56807810 0.86063933
0.22607768 0.57730985 0.86117339
0.27426565 0.58304721 0.86408788
0.44998854 0.57636380 0.85517663
0.65854889 0.60810256 0.90122837
0.82475013 0.60901809 0.91438162
0.94685280 0.61264974 0.91883725
0.95591670 0.60816360 0.91586173
0.21647975 0.67237353 0.82822919
0.23131151 0.68232244 0.82932782
0.26025787 0.69289690 0.83265430
0.28432137 0.70334935 0.83894104
0.41913483 0.71306938 0.84831005
0.62789351 0.75416189 0.88187993
0.82386512 0.78843367 0.91914243
0.96015871 0.79311818 0.93688869
0.96815443 0.79806209 0.90331882
0.33852139 0.80152589 0.78356606
0.34477761 0.81153584 0.78486305
0.36142519 0.82114899 0.78928816
0.38251317 0.82899213 0.79932863
0.41321433 0.83611810 0.81173420
0.63047224 0.91018540 0.89198136
0.81795985 0.94822615 0.92841995
0.92701608 0.92443734 0.89782560
0.98614478 0.93702602 0.92147708
0.37878996 0.84423590 0.74090183
0.38257420 0.85459679 0.74261081
0.39383537 0.86549175 0.74744791
0.41051346 0.87728697 0.75751889
0.43901733 0.88969254 0.77256429
0.60575265 0.93723965 0.83216602
0.79678035 0.98208588 0.89361411
0.91847104 0.99217212 0.90138096
0.99314868 0.99684137 0.86713970
0.15042344 0.07333486 0.78739607
0.17889677 0.06633097 0.80659187
0.22250706 0.05868620 0.85114825
0.32892346 0.05891508 0.88468754
0.46344700 0.05667201 0.90244907
0.62641335 0.05386435 0.91593802
0.77100784 0.05792325 0.91001755
0.86469823 0.06120394 0.91036850
0.89448386 0.04592966 0.91306937
0.19272144 0.10290685 0.85490197
0.19783323 0.10171664 0.86814678
0.22256809 0.07898070 0.88621348
0.30954450 0.07689021 0.91248953
0.46060884 0.08368047 0.91102463
0.61995882 0.05951019 0.92411691
0.76792556 0.06881819 0.91007859
0.86767375 0.06598001 0.91230643
0.89472800 0.07292286 0.91502249
0.14511330 0.17553979 0.92402536
0.14607462 0.17367819 0.92593271
0.20865187 0.17329670 0.92361331
0.31674677 0.16684215 0.91746396
0.46823835 0.17325093 0.92375064
0.62166780 0.17026016 0.91361868
0.77146560 0.13183795 0.91284049
0.87101549 0.11993591 0.91548026
0.89359885 0.15686275 0.91473258
0.19595636 0.30676737 0.91807431
0.19919127 0.31302357 0.91903561
0.22404821 0.31180286 0.92436105
0.33730069 0.30713359 0.92800796
0.46781111 0.29765773 0.90760660
0.61661708 0.28714427 0.90885788
0.76411080 0.27389944 0.90919358
0.85978484 0.26691082 0.90012968
0.87966734 0.28038454 0.90115207
0.22465858 0.43877319 0.91499197
0.23462272 0.44759288 0.91493094
0.25690091 0.45403218 0.91471732
0.34882125 0.44151980 0.91334403
0.48291752 0.42520791 0.90745401
0.62371254 0.41905853 0.90911728
0.78968489 0.43125048 0.92291141
0.88413823 0.41766995 0.92213321
0.89832914 0.42537576 0.91697568
0.24994278 0.56469065 0.91587698
0.25505456 0.57447165 0.91566336
0.26950485 0.58377963 0.91522086
0.30959031 0.58716714 0.91386282
0.48805982 0.58149081 0.90823227
0.66887921 0.60898757 0.94715798
0.82676435 0.61860073 0.96783400
0.93548483 0.62088960 0.96667427
0.95185781 0.62195772 0.96372932
0.28148317 0.67316699 0.90908676
0.28494698 0.68339056 0.90922409
0.29587242 0.69440758 0.90955979
0.31264210 0.70612651 0.91003281
0.42320898 0.71515983 0.90872055
0.63840693 0.75040817 0.93556118
0.84007019 0.78239107 0.97370869
0.95869380 0.78876936 0.99017316
0.98094147 0.79107350 0.99055469
0.37625697 0.78977644 0.88938737
0.37785915 0.79987794 0.89030290
0.38597697 0.81034559 0.89268333
0.39842832 0.82124054 0.89675748
0.42767987 0.83295947 0.90424961
0.64583808 0.90614176 0.97056532
0.84502935 0.94271761 0.99647516
0.94984359 0.92741281 0.99967957
0.99903870 0.92314029 0.99993896
0.40633249 0.85661095 0.86744487
0.40817884 0.86628520 0.86903179
0.41422141 0.87534904 0.87280077
0.42307165 0.88334477 0.87870604
0.43826962 0.88896012 0.88764781
0.58512247 0.93090713 0.93299764
0.78739607 0.98005646 0.99056995
0.91419852 0.99011213 0.99758905
0.99681085 1.00000000 0.99996948
